(G-CODE GENERATED BY FLATCAM v8.991 - www.flatcam.org - Version Date: 2019/12/27)

(Name: Business card PCB-F_Cu.gbr_iso_cnc)
(Type: G-code from Geometry)
(Units: MM)

(Created on Saturday, 11 July 2026 at 10:52)

(TOOL DIAMETER: 0.1 mm)
(Feedrate: 120.0 mm/min)
(Feedrate_Z: 60.0 mm/min)
(Feedrate rapids 1500.0 mm/min)

(Z_Cut: -2.4 mm)
(Z_Move: 2.0 mm)
(Z Toolchange: 15.0 mm)
(X,Y Toolchange: 0.0000, 0.0000 mm)
(Z Start: None mm)
(Z End: 15.0 mm)
(Steps per circle: 64)
(Preprocessor Geometry: default)

(X range:    0.8500 ...   86.1500  mm)
(Y range:   -0.1500 ...   55.1500  mm)

(Spindle Speed: None RPM)
G21
G90
G94




G01 F120.00
G00 Z2.0000

M03
G00 X0.8500 Y-0.0025
G01 F60.00
G01 Z-2.4000
G01 F120.00
G01 X0.8510 Y-0.0171
G01 X0.8534 Y-0.0317
G01 X0.8572 Y-0.0459
G01 X0.8624 Y-0.0597
G01 X0.8689 Y-0.0729
G01 X0.8767 Y-0.0854
G01 X0.8856 Y-0.0970
G01 X0.8957 Y-0.1078
G01 X0.9067 Y-0.1175
G01 X0.9187 Y-0.1261
G01 X0.9315 Y-0.1334
G01 X0.9449 Y-0.1395
G01 X0.9588 Y-0.1442
G01 X0.9731 Y-0.1476
G01 X0.9877 Y-0.1495
G01 X1.0000 Y-0.1500
G01 X86.0000 Y-0.1500
G01 X86.0171 Y-0.1490
G01 X86.0269 Y-0.1476
G01 X86.0412 Y-0.1442
G01 X86.0597 Y-0.1376
G01 X86.0685 Y-0.1334
G01 X86.0813 Y-0.1261
G01 X86.0933 Y-0.1175
G01 X86.1078 Y-0.1043
G01 X86.1175 Y-0.0933
G01 X86.1233 Y-0.0854
G01 X86.1311 Y-0.0729
G01 X86.1395 Y-0.0551
G01 X86.1442 Y-0.0412
G01 X86.1476 Y-0.0269
G01 X86.1490 Y-0.0171
G01 X86.1500 Y0.0000
G01 X86.1500 Y55.0000
G01 X86.1490 Y55.0171
G01 X86.1476 Y55.0269
G01 X86.1442 Y55.0412
G01 X86.1376 Y55.0597
G01 X86.1334 Y55.0685
G01 X86.1261 Y55.0813
G01 X86.1175 Y55.0933
G01 X86.1043 Y55.1078
G01 X86.0933 Y55.1175
G01 X86.0854 Y55.1233
G01 X86.0729 Y55.1311
G01 X86.0551 Y55.1395
G01 X86.0412 Y55.1442
G01 X86.0269 Y55.1476
G01 X86.0171 Y55.1490
G01 X86.0000 Y55.1500
G01 X1.0000 Y55.1500
G01 X0.9829 Y55.1490
G01 X0.9731 Y55.1476
G01 X0.9588 Y55.1442
G01 X0.9403 Y55.1376
G01 X0.9315 Y55.1334
G01 X0.9187 Y55.1261
G01 X0.9067 Y55.1175
G01 X0.8922 Y55.1043
G01 X0.8825 Y55.0933
G01 X0.8767 Y55.0854
G01 X0.8689 Y55.0729
G01 X0.8605 Y55.0551
G01 X0.8558 Y55.0412
G01 X0.8524 Y55.0269
G01 X0.8510 Y55.0171
G01 X0.8500 Y55.0000
G01 X0.8500 Y-0.0025
G00 Z2.0000
G00 X1.1500 Y0.1501
G01 F60.00
G01 Z-2.4000
G01 F120.00
G01 X85.8499 Y0.1500
G01 X85.8500 Y54.8499
G01 X1.1501 Y54.8500
G01 X1.1500 Y0.1501
G00 Z2.0000
G00 X13.8500 Y22.5000
G01 F60.00
G01 Z-2.4000
G01 F120.00
G01 X13.8500 Y22.0000
G01 X13.8510 Y21.9829
G01 X13.8524 Y21.9731
G01 X13.8558 Y21.9588
G01 X13.8605 Y21.9449
G01 X13.8666 Y21.9315
G01 X13.8739 Y21.9187
G01 X13.8825 Y21.9067
G01 X13.8922 Y21.8957
G01 X13.9030 Y21.8856
G01 X13.9146 Y21.8767
G01 X13.9271 Y21.8689
G01 X13.9403 Y21.8624
G01 X13.9541 Y21.8572
G01 X13.9683 Y21.8534
G01 X13.9829 Y21.8510
G01 X13.9975 Y21.8500
G01 X14.0123 Y21.8505
G01 X14.0269 Y21.8524
G01 X14.0412 Y21.8558
G01 X14.0597 Y21.8624
G01 X14.0685 Y21.8666
G01 X14.0813 Y21.8739
G01 X14.0970 Y21.8856
G01 X14.1078 Y21.8957
G01 X14.1144 Y21.9030
G01 X14.1261 Y21.9187
G01 X14.1334 Y21.9315
G01 X14.1395 Y21.9449
G01 X14.1428 Y21.9541
G01 X14.1476 Y21.9731
G01 X14.1495 Y21.9877
G01 X14.1500 Y22.0000
G01 X14.1500 Y22.4378
G01 X14.6261 Y22.9139
G01 X14.6344 Y22.9230
G01 X14.6433 Y22.9346
G01 X14.6534 Y22.9515
G01 X14.6595 Y22.9649
G01 X14.6642 Y22.9788
G01 X14.6676 Y22.9931
G01 X14.6690 Y23.0029
G01 X14.6700 Y23.0225
G01 X14.6690 Y23.0371
G01 X14.6676 Y23.0469
G01 X14.6628 Y23.0659
G01 X14.6576 Y23.0797
G01 X14.6511 Y23.0929
G01 X14.6433 Y23.1054
G01 X14.6375 Y23.1133
G01 X14.6278 Y23.1243
G01 X14.6170 Y23.1344
G01 X14.6054 Y23.1433
G01 X14.5929 Y23.1511
G01 X14.5797 Y23.1576
G01 X14.5659 Y23.1628
G01 X14.5517 Y23.1666
G01 X14.5371 Y23.1690
G01 X14.5225 Y23.1700
G01 X14.5077 Y23.1695
G01 X14.4931 Y23.1676
G01 X14.4788 Y23.1642
G01 X14.4649 Y23.1595
G01 X14.4515 Y23.1534
G01 X14.4387 Y23.1461
G01 X14.4267 Y23.1375
G01 X14.4139 Y23.1261
G01 X13.8939 Y22.6061
G01 X13.8856 Y22.5970
G01 X13.8739 Y22.5813
G01 X13.8666 Y22.5685
G01 X13.8605 Y22.5551
G01 X13.8558 Y22.5412
G01 X13.8524 Y22.5269
G01 X13.8505 Y22.5123
G01 X13.8500 Y22.5000
G00 Z2.0000
G00 X27.1810 Y11.8129
G01 F60.00
G01 Z-2.4000
G01 F120.00
G01 X27.1834 Y11.7983
G01 X27.1872 Y11.7841
G01 X27.1905 Y11.7749
G01 X27.1989 Y11.7571
G01 X27.2067 Y11.7446
G01 X27.2125 Y11.7367
G01 X27.2222 Y11.7257
G01 X27.2330 Y11.7156
G01 X27.2487 Y11.7039
G01 X27.2615 Y11.6966
G01 X27.2749 Y11.6905
G01 X27.2841 Y11.6872
G01 X27.2983 Y11.6834
G01 X27.3129 Y11.6810
G01 X27.3325 Y11.6800
G01 X27.3471 Y11.6810
G01 X27.3569 Y11.6824
G01 X27.3712 Y11.6858
G01 X27.3851 Y11.6905
G01 X27.4029 Y11.6989
G01 X27.4154 Y11.7067
G01 X27.4233 Y11.7125
G01 X27.4361 Y11.7239
G01 X27.6061 Y11.8939
G01 X27.6175 Y11.9067
G01 X27.6261 Y11.9187
G01 X27.6334 Y11.9315
G01 X27.6376 Y11.9403
G01 X27.6442 Y11.9588
G01 X27.6476 Y11.9731
G01 X27.6490 Y11.9829
G01 X27.6500 Y11.9975
G01 X27.6490 Y12.0171
G01 X27.6466 Y12.0317
G01 X27.6428 Y12.0459
G01 X27.6395 Y12.0551
G01 X27.6311 Y12.0729
G01 X27.6233 Y12.0854
G01 X27.6144 Y12.0970
G01 X27.6043 Y12.1078
G01 X27.5933 Y12.1175
G01 X27.5813 Y12.1261
G01 X27.5685 Y12.1334
G01 X27.5551 Y12.1395
G01 X27.5412 Y12.1442
G01 X27.5269 Y12.1476
G01 X27.5123 Y12.1495
G01 X27.4975 Y12.1500
G01 X27.4829 Y12.1490
G01 X27.4683 Y12.1466
G01 X27.4541 Y12.1428
G01 X27.4403 Y12.1376
G01 X27.4271 Y12.1311
G01 X27.4146 Y12.1233
G01 X27.4067 Y12.1175
G01 X27.3939 Y12.1061
G01 X27.2239 Y11.9361
G01 X27.2125 Y11.9233
G01 X27.2039 Y11.9113
G01 X27.1966 Y11.8985
G01 X27.1905 Y11.8851
G01 X27.1858 Y11.8712
G01 X27.1824 Y11.8569
G01 X27.1805 Y11.8423
G01 X27.1800 Y11.8275
G01 X27.1810 Y11.8129
G00 Z2.0000
G00 X33.2350 Y17.4300
G01 F60.00
G01 Z-2.4000
G01 F120.00
G01 X35.9350 Y17.4300
G01 X35.9448 Y17.4310
G01 X35.9541 Y17.4338
G01 X35.9628 Y17.4384
G01 X35.9667 Y17.4413
G01 X35.9704 Y17.4446
G01 X35.9766 Y17.4522
G01 X35.9812 Y17.4609
G01 X35.9828 Y17.4655
G01 X35.9840 Y17.4702
G01 X35.9850 Y17.4800
G01 X35.9850 Y18.6800
G01 X43.2356 Y18.6799
G01 X43.2659 Y18.5959
G01 X43.3102 Y18.5029
G01 X43.3634 Y18.4146
G01 X43.4218 Y18.3358
G01 X43.4943 Y18.2558
G01 X43.5708 Y18.1868
G01 X43.6537 Y18.1256
G01 X43.7422 Y18.0729
G01 X43.8355 Y18.0290
G01 X43.9279 Y17.9960
G01 X44.0278 Y17.9707
G01 X44.1345 Y17.9549
G01 X44.2375 Y17.9501
G01 X44.3404 Y17.9554
G01 X44.4422 Y17.9707
G01 X44.5421 Y17.9960
G01 X44.6391 Y18.0309
G01 X44.7321 Y18.0752
G01 X44.8204 Y18.1284
G01 X44.9030 Y18.1899
G01 X44.9792 Y18.2593
G01 X45.0482 Y18.3358
G01 X45.1094 Y18.4187
G01 X45.1621 Y18.5072
G01 X45.2060 Y18.6005
G01 X45.2404 Y18.6976
G01 X45.2652 Y18.7976
G01 X45.2801 Y18.8995
G01 X45.2849 Y19.0025
G01 X45.2796 Y19.1054
G01 X45.2643 Y19.2072
G01 X45.2390 Y19.3071
G01 X45.2060 Y19.3995
G01 X45.1621 Y19.4928
G01 X45.1094 Y19.5813
G01 X45.0482 Y19.6642
G01 X44.9792 Y19.7407
G01 X44.9030 Y19.8101
G01 X44.8163 Y19.8744
G01 X44.7278 Y19.9271
G01 X44.6345 Y19.9710
G01 X44.5374 Y20.0054
G01 X44.4374 Y20.0302
G01 X44.3355 Y20.0451
G01 X44.2325 Y20.0499
G01 X44.1296 Y20.0446
G01 X44.0278 Y20.0293
G01 X43.9279 Y20.0040
G01 X43.8309 Y19.9691
G01 X43.7379 Y19.9248
G01 X43.6496 Y19.8716
G01 X43.5670 Y19.8101
G01 X43.4908 Y19.7407
G01 X43.4218 Y19.6642
G01 X43.3606 Y19.5813
G01 X43.3079 Y19.4928
G01 X43.2640 Y19.3995
G01 X43.2296 Y19.3024
G01 X43.2048 Y19.2024
G01 X43.1899 Y19.1005
G01 X43.1851 Y19.0025
G01 X43.1859 Y18.9800
G01 X35.9850 Y18.9801
G01 X35.9850 Y20.1800
G01 X35.9848 Y20.1849
G01 X35.9828 Y20.1945
G01 X35.9791 Y20.2036
G01 X35.9766 Y20.2078
G01 X35.9737 Y20.2117
G01 X35.9667 Y20.2187
G01 X35.9586 Y20.2241
G01 X35.9541 Y20.2262
G01 X35.9448 Y20.2290
G01 X35.9350 Y20.2300
G01 X33.2301 Y20.2298
G01 X33.2205 Y20.2278
G01 X33.2114 Y20.2241
G01 X33.2033 Y20.2187
G01 X33.1963 Y20.2117
G01 X33.1909 Y20.2036
G01 X33.1872 Y20.1945
G01 X33.1852 Y20.1849
G01 X33.1850 Y20.1800
G01 X33.1850 Y17.4800
G01 X33.1860 Y17.4702
G01 X33.1888 Y17.4609
G01 X33.1934 Y17.4522
G01 X33.1996 Y17.4446
G01 X33.2072 Y17.4384
G01 X33.2159 Y17.4338
G01 X33.2252 Y17.4310
G01 X33.2350 Y17.4300
G00 Z2.0000
G00 X43.1904 Y12.3946
G01 F60.00
G01 Z-2.4000
G01 F120.00
G01 X43.2057 Y12.2928
G01 X43.2310 Y12.1929
G01 X43.2659 Y12.0959
G01 X43.3102 Y12.0029
G01 X43.3634 Y11.9146
G01 X43.4249 Y11.8320
G01 X43.4943 Y11.7558
G01 X43.5708 Y11.6868
G01 X43.6537 Y11.6256
G01 X43.7422 Y11.5729
G01 X43.8355 Y11.5290
G01 X43.9326 Y11.4946
G01 X44.0326 Y11.4698
G01 X44.1345 Y11.4549
G01 X44.2375 Y11.4501
G01 X44.3404 Y11.4554
G01 X44.4422 Y11.4707
G01 X44.5421 Y11.4960
G01 X44.6391 Y11.5309
G01 X44.7321 Y11.5752
G01 X44.8204 Y11.6284
G01 X44.9030 Y11.6899
G01 X44.9792 Y11.7593
G01 X45.0482 Y11.8358
G01 X45.1094 Y11.9187
G01 X45.1621 Y12.0072
G01 X45.2060 Y12.1005
G01 X45.2404 Y12.1976
G01 X45.2652 Y12.2976
G01 X45.2801 Y12.3995
G01 X45.2849 Y12.5025
G01 X45.2796 Y12.6054
G01 X45.2643 Y12.7072
G01 X45.2390 Y12.8071
G01 X45.2041 Y12.9041
G01 X45.1598 Y12.9971
G01 X45.1066 Y13.0854
G01 X45.0451 Y13.1680
G01 X44.9757 Y13.2442
G01 X44.8992 Y13.3132
G01 X44.8163 Y13.3744
G01 X44.7278 Y13.4271
G01 X44.6345 Y13.4710
G01 X44.5374 Y13.5054
G01 X44.4374 Y13.5302
G01 X44.3355 Y13.5451
G01 X44.2325 Y13.5499
G01 X44.1296 Y13.5446
G01 X44.0278 Y13.5293
G01 X43.9279 Y13.5040
G01 X43.8309 Y13.4691
G01 X43.7379 Y13.4248
G01 X43.6496 Y13.3716
G01 X43.5670 Y13.3101
G01 X43.4908 Y13.2407
G01 X43.4218 Y13.1642
G01 X43.3606 Y13.0813
G01 X43.3079 Y12.9928
G01 X43.2640 Y12.8995
G01 X43.2296 Y12.8024
G01 X43.2048 Y12.7024
G01 X43.1899 Y12.6005
G01 X43.1851 Y12.4975
G01 X43.1904 Y12.3946
G00 Z2.0000
G00 X44.8510 Y14.7529
G01 F60.00
G01 Z-2.4000
G01 F120.00
G01 X44.8524 Y14.7431
G01 X44.8558 Y14.7288
G01 X44.8605 Y14.7149
G01 X44.8666 Y14.7015
G01 X44.8767 Y14.6846
G01 X44.8825 Y14.6767
G01 X44.8922 Y14.6657
G01 X45.3939 Y14.1639
G01 X45.4067 Y14.1525
G01 X45.4187 Y14.1439
G01 X45.4315 Y14.1366
G01 X45.4449 Y14.1305
G01 X45.4588 Y14.1258
G01 X45.4731 Y14.1224
G01 X45.4877 Y14.1205
G01 X45.5025 Y14.1200
G01 X45.5171 Y14.1210
G01 X45.5317 Y14.1234
G01 X45.5459 Y14.1272
G01 X45.5597 Y14.1324
G01 X45.5729 Y14.1389
G01 X45.5854 Y14.1467
G01 X45.5970 Y14.1556
G01 X45.6078 Y14.1657
G01 X45.6175 Y14.1767
G01 X45.6233 Y14.1846
G01 X45.6311 Y14.1971
G01 X45.6376 Y14.2103
G01 X45.6428 Y14.2241
G01 X45.6476 Y14.2431
G01 X45.6490 Y14.2529
G01 X45.6500 Y14.2675
G01 X45.6490 Y14.2871
G01 X45.6476 Y14.2969
G01 X45.6442 Y14.3112
G01 X45.6395 Y14.3251
G01 X45.6334 Y14.3385
G01 X45.6233 Y14.3554
G01 X45.6144 Y14.3670
G01 X45.6061 Y14.3761
G01 X45.1061 Y14.8761
G01 X45.0933 Y14.8875
G01 X45.0854 Y14.8933
G01 X45.0729 Y14.9011
G01 X45.0551 Y14.9095
G01 X45.0459 Y14.9128
G01 X45.0317 Y14.9166
G01 X45.0123 Y14.9195
G01 X44.9975 Y14.9200
G01 X44.9877 Y14.9195
G01 X44.9683 Y14.9166
G01 X44.9541 Y14.9128
G01 X44.9449 Y14.9095
G01 X44.9271 Y14.9011
G01 X44.9146 Y14.8933
G01 X44.9067 Y14.8875
G01 X44.8922 Y14.8743
G01 X44.8825 Y14.8633
G01 X44.8767 Y14.8554
G01 X44.8666 Y14.8385
G01 X44.8605 Y14.8251
G01 X44.8572 Y14.8159
G01 X44.8524 Y14.7969
G01 X44.8510 Y14.7871
G01 X44.8500 Y14.7725
G01 X44.8510 Y14.7529
G00 Z2.0000
G00 X47.6904 Y12.3946
G01 F60.00
G01 Z-2.4000
G01 F120.00
G01 X47.7048 Y12.2976
G01 X47.7296 Y12.1976
G01 X47.7659 Y12.0959
G01 X47.8102 Y12.0029
G01 X47.8634 Y11.9146
G01 X47.9218 Y11.8358
G01 X47.9943 Y11.7558
G01 X48.0708 Y11.6868
G01 X48.1496 Y11.6284
G01 X48.2422 Y11.5729
G01 X48.3355 Y11.5290
G01 X48.4279 Y11.4960
G01 X48.5278 Y11.4707
G01 X48.6345 Y11.4549
G01 X48.7375 Y11.4501
G01 X48.8355 Y11.4549
G01 X48.9374 Y11.4698
G01 X49.0421 Y11.4960
G01 X49.1391 Y11.5309
G01 X49.2278 Y11.5729
G01 X49.3163 Y11.6256
G01 X49.4030 Y11.6899
G01 X49.4792 Y11.7593
G01 X49.5482 Y11.8358
G01 X49.6094 Y11.9187
G01 X49.6621 Y12.0072
G01 X49.7060 Y12.1005
G01 X49.7390 Y12.1929
G01 X49.7643 Y12.2928
G01 X49.7796 Y12.3946
G01 X49.7849 Y12.4975
G01 X49.7801 Y12.6005
G01 X49.7652 Y12.7024
G01 X49.7404 Y12.8024
G01 X49.7060 Y12.8995
G01 X49.6621 Y12.9928
G01 X49.6094 Y13.0813
G01 X49.5751 Y13.1279
G01 X55.0272 Y18.5800
G01 X61.2980 Y18.5799
G01 X61.3038 Y18.5423
G01 X61.3267 Y18.4519
G01 X61.3583 Y18.3642
G01 X61.3984 Y18.2800
G01 X61.4465 Y18.2002
G01 X61.5022 Y18.1255
G01 X61.5650 Y18.0566
G01 X61.6343 Y17.9941
G01 X61.7093 Y17.9388
G01 X61.7894 Y17.8911
G01 X61.8737 Y17.8514
G01 X61.9616 Y17.8203
G01 X62.0521 Y17.7978
G01 X62.1443 Y17.7844
G01 X62.2375 Y17.7801
G01 X62.3257 Y17.7844
G01 X62.4179 Y17.7978
G01 X62.5131 Y17.8217
G01 X62.5963 Y17.8514
G01 X62.6806 Y17.8911
G01 X62.7607 Y17.9388
G01 X62.8357 Y17.9941
G01 X62.9084 Y18.0600
G01 X62.9709 Y18.1293
G01 X63.0235 Y18.2002
G01 X63.0716 Y18.2800
G01 X63.1136 Y18.3687
G01 X63.1447 Y18.4566
G01 X63.1672 Y18.5471
G01 X63.1801 Y18.6344
G01 X63.1849 Y18.7275
G01 X63.1806 Y18.8207
G01 X63.1672 Y18.9129
G01 X63.1433 Y19.0081
G01 X63.1117 Y19.0958
G01 X63.0739 Y19.1756
G01 X63.0262 Y19.2557
G01 X62.9678 Y19.3345
G01 X62.9050 Y19.4034
G01 X62.8395 Y19.4628
G01 X62.7607 Y19.5212
G01 X62.6806 Y19.5689
G01 X62.6008 Y19.6067
G01 X62.5084 Y19.6397
G01 X62.4179 Y19.6622
G01 X62.3306 Y19.6751
G01 X62.2325 Y19.6799
G01 X62.1394 Y19.6751
G01 X62.0473 Y19.6612
G01 X61.9569 Y19.6383
G01 X61.8737 Y19.6086
G01 X61.7850 Y19.5666
G01 X61.7052 Y19.5185
G01 X61.6305 Y19.4628
G01 X61.5616 Y19.4000
G01 X61.5022 Y19.3345
G01 X61.4465 Y19.2598
G01 X61.3984 Y19.1800
G01 X61.3583 Y19.0958
G01 X61.3267 Y19.0081
G01 X61.3038 Y18.9177
G01 X61.2980 Y18.8800
G01 X54.9650 Y18.8800
G01 X54.9479 Y18.8790
G01 X54.9333 Y18.8766
G01 X54.9191 Y18.8728
G01 X54.9053 Y18.8676
G01 X54.8921 Y18.8611
G01 X54.8796 Y18.8533
G01 X54.8680 Y18.8444
G01 X54.8589 Y18.8361
G01 X49.3629 Y13.3401
G01 X49.3163 Y13.3744
G01 X49.2278 Y13.4271
G01 X49.1345 Y13.4710
G01 X49.0421 Y13.5040
G01 X48.9422 Y13.5293
G01 X48.8404 Y13.5446
G01 X48.7325 Y13.5499
G01 X48.6296 Y13.5446
G01 X48.5326 Y13.5302
G01 X48.4326 Y13.5054
G01 X48.3355 Y13.4710
G01 X48.2422 Y13.4271
G01 X48.1537 Y13.3744
G01 X48.0670 Y13.3101
G01 X47.9908 Y13.2407
G01 X47.9218 Y13.1642
G01 X47.8634 Y13.0854
G01 X47.8079 Y12.9928
G01 X47.7640 Y12.8995
G01 X47.7296 Y12.8024
G01 X47.7048 Y12.7024
G01 X47.6904 Y12.6054
G01 X47.6851 Y12.4975
G01 X47.6904 Y12.3946
G00 Z2.0000
G00 X47.6904 Y18.8946
G01 F60.00
G01 Z-2.4000
G01 F120.00
G01 X47.7057 Y18.7928
G01 X47.7310 Y18.6929
G01 X47.7659 Y18.5959
G01 X47.8102 Y18.5029
G01 X47.8634 Y18.4146
G01 X47.9249 Y18.3320
G01 X47.9943 Y18.2558
G01 X48.0708 Y18.1868
G01 X48.1537 Y18.1256
G01 X48.2422 Y18.0729
G01 X48.3355 Y18.0290
G01 X48.4326 Y17.9946
G01 X48.5326 Y17.9698
G01 X48.6345 Y17.9549
G01 X48.7375 Y17.9501
G01 X48.8404 Y17.9554
G01 X48.9422 Y17.9707
G01 X49.0421 Y17.9960
G01 X49.1391 Y18.0309
G01 X49.2321 Y18.0752
G01 X49.3204 Y18.1284
G01 X49.4030 Y18.1899
G01 X49.4792 Y18.2593
G01 X49.5482 Y18.3358
G01 X49.6094 Y18.4187
G01 X49.6621 Y18.5072
G01 X49.7060 Y18.6005
G01 X49.7404 Y18.6976
G01 X49.7652 Y18.7976
G01 X49.7801 Y18.8995
G01 X49.7849 Y19.0025
G01 X49.7796 Y19.1054
G01 X49.7643 Y19.2072
G01 X49.7390 Y19.3071
G01 X49.7041 Y19.4041
G01 X49.6598 Y19.4971
G01 X49.6066 Y19.5854
G01 X49.5451 Y19.6680
G01 X49.4757 Y19.7442
G01 X49.3992 Y19.8132
G01 X49.3163 Y19.8744
G01 X49.2278 Y19.9271
G01 X49.1345 Y19.9710
G01 X49.0374 Y20.0054
G01 X48.9374 Y20.0302
G01 X48.8355 Y20.0451
G01 X48.7325 Y20.0499
G01 X48.6296 Y20.0446
G01 X48.5278 Y20.0293
G01 X48.4279 Y20.0040
G01 X48.3309 Y19.9691
G01 X48.2379 Y19.9248
G01 X48.1496 Y19.8716
G01 X48.0670 Y19.8101
G01 X47.9908 Y19.7407
G01 X47.9218 Y19.6642
G01 X47.8606 Y19.5813
G01 X47.8079 Y19.4928
G01 X47.7640 Y19.3995
G01 X47.7296 Y19.3024
G01 X47.7048 Y19.2024
G01 X47.6899 Y19.1005
G01 X47.6851 Y18.9975
G01 X47.6904 Y18.8946
G00 Z2.0000
G00 X49.7830 Y1.9135
G01 F60.00
G01 Z-2.4000
G01 F120.00
G01 X49.7830 Y1.4849
G01 X49.7837 Y1.4683
G01 X49.7855 Y1.4536
G01 X49.7874 Y1.4435
G01 X49.7908 Y1.4297
G01 X49.7972 Y1.4111
G01 X49.8041 Y1.3954
G01 X49.8756 Y1.2526
G01 X49.8839 Y1.2376
G01 X49.8896 Y1.2289
G01 X49.8983 Y1.2170
G01 X49.9110 Y1.2027
G01 X49.9845 Y1.1291
G01 X49.9972 Y1.1175
G01 X50.0128 Y1.1057
G01 X50.0215 Y1.1000
G01 X50.0365 Y1.0916
G01 X50.1793 Y1.0202
G01 X50.1945 Y1.0134
G01 X50.2084 Y1.0085
G01 X50.2183 Y1.0056
G01 X50.2322 Y1.0025
G01 X50.2516 Y0.9999
G01 X50.2688 Y0.9991
G01 X50.5545 Y0.9991
G01 X50.5662 Y0.9995
G01 X50.5858 Y1.0016
G01 X50.5959 Y1.0035
G01 X50.6149 Y1.0085
G01 X50.6333 Y1.0153
G01 X50.6440 Y1.0202
G01 X50.7890 Y1.0928
G01 X50.8060 Y1.1026
G01 X50.8181 Y1.1111
G01 X50.8331 Y1.1237
G01 X50.8469 Y1.1377
G01 X50.8620 Y1.1570
G01 X50.8723 Y1.1737
G01 X50.8810 Y1.1913
G01 X50.8879 Y1.2097
G01 X50.8929 Y1.2286
G01 X50.8955 Y1.2431
G01 X50.8972 Y1.2627
G01 X50.8971 Y1.2823
G01 X50.8949 Y1.3018
G01 X50.8909 Y1.3211
G01 X50.8833 Y1.3444
G01 X50.8752 Y1.3622
G01 X50.8653 Y1.3792
G01 X50.8539 Y1.3952
G01 X50.8409 Y1.4099
G01 X50.8266 Y1.4233
G01 X50.8110 Y1.4352
G01 X50.7943 Y1.4456
G01 X50.7767 Y1.4542
G01 X50.7629 Y1.4596
G01 X50.7393 Y1.4662
G01 X50.7200 Y1.4694
G01 X50.7053 Y1.4705
G01 X50.6807 Y1.4699
G01 X50.6661 Y1.4682
G01 X50.6469 Y1.4642
G01 X50.6236 Y1.4565
G01 X50.6079 Y1.4496
G01 X50.5073 Y1.3992
G01 X50.3160 Y1.3992
G01 X50.2445 Y1.4350
G01 X50.2189 Y1.4605
G01 X50.1832 Y1.5321
G01 X50.1832 Y1.8662
G01 X50.2189 Y1.9378
G01 X50.2445 Y1.9633
G01 X50.3160 Y1.9991
G01 X50.5073 Y1.9991
G01 X50.6079 Y1.9488
G01 X50.6236 Y1.9418
G01 X50.6469 Y1.9342
G01 X50.6661 Y1.9302
G01 X50.6807 Y1.9284
G01 X50.7004 Y1.9277
G01 X50.7200 Y1.9290
G01 X50.7441 Y1.9333
G01 X50.7629 Y1.9388
G01 X50.7767 Y1.9441
G01 X50.7986 Y1.9552
G01 X50.8110 Y1.9631
G01 X50.8266 Y1.9750
G01 X50.8409 Y1.9884
G01 X50.8569 Y2.0070
G01 X50.8679 Y2.0233
G01 X50.8774 Y2.0405
G01 X50.8833 Y2.0540
G01 X50.8896 Y2.0725
G01 X50.8941 Y2.0917
G01 X50.8971 Y2.1160
G01 X50.8974 Y2.1307
G01 X50.8961 Y2.1503
G01 X50.8929 Y2.1697
G01 X50.8863 Y2.1933
G01 X50.8790 Y2.2115
G01 X50.8699 Y2.2289
G01 X50.8620 Y2.2413
G01 X50.8501 Y2.2569
G01 X50.8367 Y2.2713
G01 X50.8181 Y2.2873
G01 X50.8018 Y2.2983
G01 X50.7868 Y2.3067
G01 X50.6440 Y2.3781
G01 X50.6288 Y2.3849
G01 X50.6149 Y2.3899
G01 X50.5959 Y2.3949
G01 X50.5858 Y2.3967
G01 X50.5711 Y2.3985
G01 X50.5545 Y2.3992
G01 X50.2663 Y2.3992
G01 X50.2516 Y2.3985
G01 X50.2327 Y2.3959
G01 X50.2136 Y2.3914
G01 X50.1996 Y2.3869
G01 X50.1900 Y2.3830
G01 X50.1793 Y2.3781
G01 X50.0365 Y2.3067
G01 X50.0215 Y2.2983
G01 X50.0128 Y2.2927
G01 X49.9972 Y2.2808
G01 X49.9845 Y2.2692
G01 X49.9130 Y2.1978
G01 X49.9015 Y2.1851
G01 X49.8896 Y2.1695
G01 X49.8839 Y2.1608
G01 X49.8770 Y2.1484
G01 X49.8041 Y2.0029
G01 X49.7992 Y1.9923
G01 X49.7924 Y1.9739
G01 X49.7874 Y1.9549
G01 X49.7843 Y1.9355
G01 X49.7834 Y1.9252
G01 X49.7830 Y1.9135
G00 Z2.0000
G00 X51.0687 Y1.5563
G01 F60.00
G01 Z-2.4000
G01 F120.00
G01 X51.0687 Y1.4135
G01 X51.0691 Y1.4017
G01 X51.0712 Y1.3822
G01 X51.0731 Y1.3720
G01 X51.0767 Y1.3577
G01 X51.0829 Y1.3397
G01 X51.0898 Y1.3240
G01 X51.1613 Y1.1811
G01 X51.1677 Y1.1694
G01 X51.1756 Y1.1570
G01 X51.1837 Y1.1460
G01 X51.1907 Y1.1377
G01 X51.2009 Y1.1271
G01 X51.2073 Y1.1211
G01 X51.2157 Y1.1141
G01 X51.2266 Y1.1060
G01 X51.2390 Y1.0981
G01 X51.2507 Y1.0916
G01 X51.3936 Y1.0202
G01 X51.4043 Y1.0153
G01 X51.4227 Y1.0085
G01 X51.4417 Y1.0035
G01 X51.4518 Y1.0016
G01 X51.4714 Y0.9995
G01 X51.4831 Y0.9991
G01 X51.8427 Y0.9992
G01 X51.8623 Y1.0004
G01 X51.8768 Y1.0025
G01 X51.8954 Y1.0069
G01 X51.9118 Y1.0124
G01 X51.9274 Y1.0071
G01 X51.9417 Y1.0035
G01 X51.9610 Y1.0004
G01 X51.9806 Y0.9992
G01 X52.0002 Y0.9999
G01 X52.0245 Y1.0035
G01 X52.0435 Y1.0085
G01 X52.0574 Y1.0134
G01 X52.0752 Y1.0216
G01 X52.0962 Y1.0342
G01 X52.1119 Y1.0461
G01 X52.1262 Y1.0595
G01 X52.1393 Y1.0742
G01 X52.1480 Y1.0860
G01 X52.1583 Y1.1027
G01 X52.1669 Y1.1204
G01 X52.1738 Y1.1388
G01 X52.1788 Y1.1577
G01 X52.1824 Y1.1820
G01 X52.1832 Y1.1992
G01 X52.1832 Y1.9849
G01 X52.1828 Y1.9966
G01 X52.1819 Y2.0069
G01 X52.1788 Y2.0263
G01 X52.1738 Y2.0453
G01 X52.1669 Y2.0637
G01 X52.1620 Y2.0744
G01 X52.0906 Y2.2172
G01 X52.0842 Y2.2289
G01 X52.0763 Y2.2413
G01 X52.0682 Y2.2523
G01 X52.0611 Y2.2606
G01 X52.0510 Y2.2713
G01 X52.0446 Y2.2772
G01 X52.0362 Y2.2842
G01 X52.0253 Y2.2924
G01 X52.0161 Y2.2983
G01 X52.0033 Y2.3055
G01 X51.8583 Y2.3781
G01 X51.8476 Y2.3830
G01 X51.8292 Y2.3899
G01 X51.8102 Y2.3949
G01 X51.8000 Y2.3967
G01 X51.7805 Y2.3989
G01 X51.7688 Y2.3992
G01 X51.4831 Y2.3992
G01 X51.4659 Y2.3985
G01 X51.4465 Y2.3958
G01 X51.4326 Y2.3927
G01 X51.4227 Y2.3899
G01 X51.4088 Y2.3849
G01 X51.3958 Y2.3792
G01 X51.2507 Y2.3067
G01 X51.2316 Y2.2957
G01 X51.2195 Y2.2873
G01 X51.2045 Y2.2747
G01 X51.1875 Y2.2569
G01 X51.1756 Y2.2413
G01 X51.1677 Y2.2289
G01 X51.1586 Y2.2115
G01 X51.1512 Y2.1933
G01 X51.1457 Y2.1745
G01 X51.1421 Y2.1552
G01 X51.1402 Y2.1307
G01 X51.1409 Y2.1111
G01 X51.1427 Y2.0965
G01 X51.1480 Y2.0725
G01 X51.1543 Y2.0540
G01 X51.1624 Y2.0361
G01 X51.1723 Y2.0191
G01 X51.1807 Y2.0070
G01 X51.1967 Y1.9884
G01 X51.2073 Y1.9782
G01 X51.2226 Y1.9659
G01 X51.2433 Y1.9528
G01 X51.2609 Y1.9441
G01 X51.2793 Y1.9372
G01 X51.2983 Y1.9322
G01 X51.3128 Y1.9296
G01 X51.3323 Y1.9279
G01 X51.3506 Y1.9280
G01 X51.2507 Y1.8781
G01 X51.2390 Y1.8717
G01 X51.2316 Y1.8671
G01 X51.2195 Y1.8587
G01 X51.2045 Y1.8461
G01 X51.1933 Y1.8349
G01 X51.1807 Y1.8199
G01 X51.1696 Y1.8036
G01 X51.1613 Y1.7886
G01 X51.0898 Y1.6458
G01 X51.0849 Y1.6351
G01 X51.0781 Y1.6167
G01 X51.0731 Y1.5977
G01 X51.0700 Y1.5784
G01 X51.0691 Y1.5680
G01 X51.0687 Y1.5563
G00 Z2.0000
G00 X51.4894 Y1.4197
G01 F60.00
G01 Z-2.4000
G01 F120.00
G01 X51.5303 Y1.3992
G01 X51.7830 Y1.3992
G01 X51.7830 Y1.5705
G01 X51.5303 Y1.5705
G01 X51.4894 Y1.5500
G01 X51.4689 Y1.5091
G01 X51.4689 Y1.4607
G01 X51.4894 Y1.4197
G00 Z2.0000
G00 X51.4728 Y1.9703
G01 F60.00
G01 Z-2.4000
G01 F120.00
G01 X51.4831 Y1.9707
G01 X51.7665 Y1.9707
G01 X51.7625 Y1.9786
G01 X51.7216 Y1.9991
G01 X51.5303 Y1.9991
G01 X51.4728 Y1.9703
G00 Z2.0000
G00 X52.4973 Y2.1992
G01 F60.00
G01 Z-2.4000
G01 F120.00
G01 X52.4973 Y1.1992
G01 X52.4981 Y1.1820
G01 X52.5017 Y1.1577
G01 X52.5067 Y1.1388
G01 X52.5135 Y1.1204
G01 X52.5221 Y1.1027
G01 X52.5324 Y1.0860
G01 X52.5412 Y1.0742
G01 X52.5542 Y1.0595
G01 X52.5686 Y1.0461
G01 X52.5842 Y1.0342
G01 X52.6009 Y1.0239
G01 X52.6186 Y1.0153
G01 X52.6370 Y1.0085
G01 X52.6608 Y1.0025
G01 X52.6753 Y1.0004
G01 X52.6949 Y0.9992
G01 X52.7145 Y0.9999
G01 X52.7388 Y1.0035
G01 X52.7578 Y1.0085
G01 X52.7762 Y1.0153
G01 X52.7938 Y1.0239
G01 X52.8105 Y1.0342
G01 X52.8224 Y1.0430
G01 X52.8371 Y1.0560
G01 X52.8504 Y1.0704
G01 X52.8623 Y1.0860
G01 X52.8726 Y1.1027
G01 X52.8831 Y1.1249
G01 X52.8895 Y1.1435
G01 X52.8940 Y1.1626
G01 X52.8967 Y1.1820
G01 X52.8974 Y1.1992
G01 X52.8974 Y1.9684
G01 X52.9589 Y1.9991
G01 X53.0787 Y1.9991
G01 X53.1197 Y1.9786
G01 X53.1402 Y1.9377
G01 X53.1402 Y1.1992
G01 X53.1409 Y1.1820
G01 X53.1436 Y1.1626
G01 X53.1481 Y1.1435
G01 X53.1545 Y1.1249
G01 X53.1627 Y1.1070
G01 X53.1726 Y1.0901
G01 X53.1872 Y1.0704
G01 X53.2005 Y1.0560
G01 X53.2152 Y1.0430
G01 X53.2311 Y1.0315
G01 X53.2481 Y1.0216
G01 X53.2659 Y1.0134
G01 X53.2798 Y1.0085
G01 X53.2988 Y1.0035
G01 X53.3231 Y0.9999
G01 X53.3427 Y0.9992
G01 X53.3623 Y1.0004
G01 X53.3768 Y1.0025
G01 X53.3959 Y1.0071
G01 X53.4145 Y1.0134
G01 X53.4367 Y1.0239
G01 X53.4534 Y1.0342
G01 X53.4652 Y1.0430
G01 X53.4799 Y1.0560
G01 X53.4933 Y1.0704
G01 X53.5052 Y1.0860
G01 X53.5155 Y1.1027
G01 X53.5260 Y1.1249
G01 X53.5323 Y1.1435
G01 X53.5369 Y1.1626
G01 X53.5395 Y1.1820
G01 X53.5403 Y1.1992
G01 X53.5403 Y1.9377
G01 X53.5608 Y1.9786
G01 X53.6017 Y1.9991
G01 X53.7216 Y1.9991
G01 X53.7625 Y1.9786
G01 X53.7830 Y1.9377
G01 X53.7831 Y1.1967
G01 X53.7838 Y1.1820
G01 X53.7864 Y1.1626
G01 X53.7910 Y1.1435
G01 X53.7992 Y1.1204
G01 X53.8078 Y1.1027
G01 X53.8181 Y1.0860
G01 X53.8269 Y1.0742
G01 X53.8399 Y1.0595
G01 X53.8543 Y1.0461
G01 X53.8740 Y1.0315
G01 X53.8910 Y1.0216
G01 X53.9043 Y1.0153
G01 X53.9227 Y1.0085
G01 X53.9465 Y1.0025
G01 X53.9610 Y1.0004
G01 X53.9806 Y0.9992
G01 X54.0002 Y0.9999
G01 X54.0245 Y1.0035
G01 X54.0435 Y1.0085
G01 X54.0574 Y1.0134
G01 X54.0752 Y1.0216
G01 X54.0922 Y1.0315
G01 X54.1119 Y1.0461
G01 X54.1262 Y1.0595
G01 X54.1393 Y1.0742
G01 X54.1480 Y1.0860
G01 X54.1606 Y1.1070
G01 X54.1688 Y1.1249
G01 X54.1738 Y1.1388
G01 X54.1797 Y1.1626
G01 X54.1824 Y1.1820
G01 X54.1831 Y1.1967
G01 X54.1832 Y1.9849
G01 X54.1828 Y1.9966
G01 X54.1819 Y2.0069
G01 X54.1798 Y2.0210
G01 X54.1766 Y2.0353
G01 X54.1708 Y2.0541
G01 X54.1669 Y2.0637
G01 X54.1620 Y2.0744
G01 X54.0866 Y2.2247
G01 X54.0796 Y2.2364
G01 X54.0735 Y2.2454
G01 X54.0682 Y2.2523
G01 X54.0586 Y2.2635
G01 X54.0510 Y2.2713
G01 X54.0408 Y2.2805
G01 X54.0253 Y2.2924
G01 X54.0128 Y2.3003
G01 X54.0011 Y2.3067
G01 X53.8583 Y2.3781
G01 X53.8476 Y2.3830
G01 X53.8380 Y2.3869
G01 X53.8193 Y2.3927
G01 X53.8000 Y2.3967
G01 X53.7854 Y2.3985
G01 X53.7688 Y2.3992
G01 X53.5545 Y2.3992
G01 X53.5373 Y2.3985
G01 X53.5179 Y2.3958
G01 X53.4988 Y2.3913
G01 X53.4853 Y2.3869
G01 X53.4757 Y2.3830
G01 X53.4650 Y2.3781
G01 X53.3402 Y2.3157
G01 X53.2154 Y2.3781
G01 X53.2047 Y2.3830
G01 X53.1951 Y2.3869
G01 X53.1764 Y2.3927
G01 X53.1626 Y2.3958
G01 X53.1480 Y2.3980
G01 X53.1377 Y2.3989
G01 X53.1259 Y2.3992
G01 X52.9117 Y2.3992
G01 X52.8945 Y2.3985
G01 X52.8804 Y2.3967
G01 X52.8702 Y2.3949
G01 X52.8512 Y2.3899
G01 X52.8328 Y2.3830
G01 X52.8222 Y2.3781
G01 X52.8033 Y2.3687
G01 X52.7895 Y2.3767
G01 X52.7716 Y2.3849
G01 X52.7578 Y2.3899
G01 X52.7388 Y2.3949
G01 X52.7145 Y2.3985
G01 X52.6949 Y2.3992
G01 X52.6802 Y2.3985
G01 X52.6608 Y2.3958
G01 X52.6417 Y2.3913
G01 X52.6231 Y2.3849
G01 X52.6052 Y2.3767
G01 X52.5883 Y2.3668
G01 X52.5724 Y2.3553
G01 X52.5542 Y2.3389
G01 X52.5412 Y2.3242
G01 X52.5297 Y2.3083
G01 X52.5198 Y2.2913
G01 X52.5116 Y2.2734
G01 X52.5053 Y2.2549
G01 X52.5007 Y2.2358
G01 X52.4981 Y2.2163
G01 X52.4973 Y2.1992
G00 Z2.0000
G00 X54.4259 Y1.9135
G01 F60.00
G01 Z-2.4000
G01 F120.00
G01 X54.4259 Y1.4849
G01 X54.4263 Y1.4732
G01 X54.4271 Y1.4628
G01 X54.4293 Y1.4483
G01 X54.4324 Y1.4344
G01 X54.4383 Y1.4157
G01 X54.4421 Y1.4061
G01 X54.4470 Y1.3954
G01 X54.5184 Y1.2526
G01 X54.5221 Y1.2456
G01 X54.5297 Y1.2329
G01 X54.5412 Y1.2170
G01 X54.5505 Y1.2063
G01 X54.5559 Y1.2006
G01 X54.6273 Y1.1291
G01 X54.6400 Y1.1175
G01 X54.6556 Y1.1057
G01 X54.6643 Y1.1000
G01 X54.6767 Y1.0930
G01 X54.8244 Y1.0192
G01 X54.8379 Y1.0132
G01 X54.8565 Y1.0069
G01 X54.8750 Y1.0025
G01 X54.8945 Y0.9999
G01 X54.9117 Y0.9991
G01 X55.1998 Y0.9992
G01 X55.2194 Y1.0004
G01 X55.2340 Y1.0025
G01 X55.2526 Y1.0069
G01 X55.2689 Y1.0124
G01 X55.2845 Y1.0071
G01 X55.2988 Y1.0035
G01 X55.3182 Y1.0004
G01 X55.3378 Y0.9992
G01 X55.3574 Y0.9999
G01 X55.3768 Y1.0025
G01 X55.3959 Y1.0071
G01 X55.4190 Y1.0153
G01 X55.4323 Y1.0216
G01 X55.4493 Y1.0315
G01 X55.4690 Y1.0461
G01 X55.4834 Y1.0595
G01 X55.4964 Y1.0742
G01 X55.5079 Y1.0901
G01 X55.5178 Y1.1070
G01 X55.5241 Y1.1204
G01 X55.5309 Y1.1388
G01 X55.5359 Y1.1577
G01 X55.5390 Y1.1771
G01 X55.5403 Y1.1992
G01 X55.5402 Y2.7016
G01 X55.5390 Y2.7212
G01 X55.5359 Y2.7406
G01 X55.5309 Y2.7596
G01 X55.5260 Y2.7734
G01 X55.5155 Y2.7956
G01 X55.5052 Y2.8123
G01 X55.4933 Y2.8280
G01 X55.4799 Y2.8423
G01 X55.4652 Y2.8553
G01 X55.4493 Y2.8668
G01 X55.4323 Y2.8767
G01 X55.4145 Y2.8849
G01 X55.3959 Y2.8913
G01 X55.3768 Y2.8958
G01 X55.3574 Y2.8985
G01 X55.3378 Y2.8992
G01 X55.3182 Y2.8980
G01 X55.2988 Y2.8949
G01 X55.2798 Y2.8899
G01 X55.2614 Y2.8830
G01 X55.2438 Y2.8744
G01 X55.2271 Y2.8641
G01 X55.2114 Y2.8522
G01 X55.1971 Y2.8389
G01 X55.1872 Y2.8280
G01 X55.1753 Y2.8123
G01 X55.1650 Y2.7956
G01 X55.1545 Y2.7734
G01 X55.1481 Y2.7549
G01 X55.1436 Y2.7358
G01 X55.1409 Y2.7163
G01 X55.1402 Y2.6992
G01 X55.1401 Y2.3992
G01 X54.9117 Y2.3992
G01 X54.8999 Y2.3989
G01 X54.8896 Y2.3980
G01 X54.8702 Y2.3949
G01 X54.8565 Y2.3914
G01 X54.8425 Y2.3869
G01 X54.8328 Y2.3830
G01 X54.8222 Y2.3781
G01 X54.6793 Y2.3067
G01 X54.6643 Y2.2983
G01 X54.6556 Y2.2927
G01 X54.6438 Y2.2839
G01 X54.6295 Y2.2713
G01 X54.5559 Y2.1978
G01 X54.5505 Y2.1921
G01 X54.5409 Y2.1809
G01 X54.5324 Y2.1695
G01 X54.5268 Y2.1608
G01 X54.5184 Y2.1458
G01 X54.4470 Y2.0029
G01 X54.4402 Y1.9877
G01 X54.4338 Y1.9692
G01 X54.4293 Y1.9501
G01 X54.4266 Y1.9306
G01 X54.4259 Y1.9135
G00 Z2.0000
G00 X55.1402 Y1.3992
G01 F60.00
G01 Z-2.4000
G01 F120.00
G01 X55.1402 Y1.9991
G01 X54.9589 Y1.9991
G01 X54.8873 Y1.9633
G01 X54.8618 Y1.9378
G01 X54.8260 Y1.8662
G01 X54.8260 Y1.5321
G01 X54.8618 Y1.4605
G01 X54.8873 Y1.4350
G01 X54.9589 Y1.3992
G01 X55.1402 Y1.3992
G00 Z2.0000
G00 X55.7830 Y1.9849
G01 F60.00
G01 Z-2.4000
G01 F120.00
G01 X55.7830 Y1.4135
G01 X55.7837 Y1.3968
G01 X55.7855 Y1.3822
G01 X55.7874 Y1.3720
G01 X55.7908 Y1.3583
G01 X55.7954 Y1.3443
G01 X55.7992 Y1.3346
G01 X55.8041 Y1.3240
G01 X55.8756 Y1.1811
G01 X55.8820 Y1.1694
G01 X55.8865 Y1.1620
G01 X55.8980 Y1.1460
G01 X55.9110 Y1.1313
G01 X55.9253 Y1.1179
G01 X55.9409 Y1.1060
G01 X55.9576 Y1.0956
G01 X56.1079 Y1.0202
G01 X56.1186 Y1.0153
G01 X56.1282 Y1.0115
G01 X56.1417 Y1.0071
G01 X56.1559 Y1.0035
G01 X56.1753 Y1.0004
G01 X56.1856 Y0.9995
G01 X56.1974 Y0.9991
G01 X56.4855 Y0.9992
G01 X56.4997 Y0.9998
G01 X56.5143 Y1.0016
G01 X56.5335 Y1.0056
G01 X56.5523 Y1.0115
G01 X56.5619 Y1.0153
G01 X56.5726 Y1.0202
G01 X56.7154 Y1.0916
G01 X56.7304 Y1.1000
G01 X56.7505 Y1.1141
G01 X56.7652 Y1.1271
G01 X56.7786 Y1.1414
G01 X56.7906 Y1.1570
G01 X56.8009 Y1.1737
G01 X56.8096 Y1.1913
G01 X56.8149 Y1.2050
G01 X56.8204 Y1.2239
G01 X56.8247 Y1.2480
G01 X56.8259 Y1.2676
G01 X56.8253 Y1.2872
G01 X56.8227 Y1.3067
G01 X56.8182 Y1.3258
G01 X56.8119 Y1.3444
G01 X56.8059 Y1.3579
G01 X56.7965 Y1.3751
G01 X56.7855 Y1.3913
G01 X56.7729 Y1.4063
G01 X56.7588 Y1.4201
G01 X56.7395 Y1.4352
G01 X56.7229 Y1.4456
G01 X56.7052 Y1.4542
G01 X56.6915 Y1.4596
G01 X56.6679 Y1.4662
G01 X56.6534 Y1.4687
G01 X56.6338 Y1.4705
G01 X56.6093 Y1.4699
G01 X56.5947 Y1.4682
G01 X56.5755 Y1.4642
G01 X56.5522 Y1.4565
G01 X56.5365 Y1.4496
G01 X56.4359 Y1.3992
G01 X56.2446 Y1.3992
G01 X56.2036 Y1.4197
G01 X56.1832 Y1.4607
G01 X56.1832 Y1.5351
G01 X56.7366 Y1.6458
G01 X56.7555 Y1.6506
G01 X56.7740 Y1.6572
G01 X56.7895 Y1.6645
G01 X56.7940 Y1.6669
G01 X56.8107 Y1.6772
G01 X56.8244 Y1.6875
G01 X56.8390 Y1.7007
G01 X56.8521 Y1.7152
G01 X56.8637 Y1.7309
G01 X56.8739 Y1.7479
G01 X56.8832 Y1.7679
G01 X56.8888 Y1.7840
G01 X56.8931 Y1.8006
G01 X56.8965 Y1.8224
G01 X56.8974 Y1.8420
G01 X56.8974 Y1.9849
G01 X56.8967 Y2.0020
G01 X56.8940 Y2.0215
G01 X56.8909 Y2.0353
G01 X56.8881 Y2.0453
G01 X56.8831 Y2.0592
G01 X56.8774 Y2.0721
G01 X56.8009 Y2.2247
G01 X56.7939 Y2.2364
G01 X56.7824 Y2.2523
G01 X56.7695 Y2.2671
G01 X56.7551 Y2.2805
G01 X56.7395 Y2.2924
G01 X56.7229 Y2.3027
G01 X56.5726 Y2.3781
G01 X56.5574 Y2.3849
G01 X56.5435 Y2.3899
G01 X56.5335 Y2.3927
G01 X56.5192 Y2.3959
G01 X56.5002 Y2.3985
G01 X56.4831 Y2.3992
G01 X56.1974 Y2.3992
G01 X56.1807 Y2.3985
G01 X56.1661 Y2.3967
G01 X56.1559 Y2.3949
G01 X56.1370 Y2.3899
G01 X56.1231 Y2.3849
G01 X56.1079 Y2.3781
G01 X55.9576 Y2.3027
G01 X55.9459 Y2.2957
G01 X55.9299 Y2.2842
G01 X55.9188 Y2.2747
G01 X55.9050 Y2.2606
G01 X55.8980 Y2.2523
G01 X55.8899 Y2.2413
G01 X55.8795 Y2.2247
G01 X55.8041 Y2.0744
G01 X55.7992 Y2.0637
G01 X55.7924 Y2.0453
G01 X55.7874 Y2.0263
G01 X55.7843 Y2.0069
G01 X55.7834 Y1.9966
G01 X55.7830 Y1.9849
G00 Z2.0000
G00 X56.1863 Y1.9438
G01 F60.00
G01 Z-2.4000
G01 F120.00
G01 X56.4435 Y1.9953
G01 X56.4359 Y1.9991
G01 X56.2446 Y1.9991
G01 X56.2036 Y1.9786
G01 X56.1863 Y1.9438
G00 Z2.0000
G00 X57.1401 Y2.1992
G01 F60.00
G01 Z-2.4000
G01 F120.00
G01 X57.1402 Y1.1967
G01 X57.1414 Y1.1771
G01 X57.1445 Y1.1577
G01 X57.1495 Y1.1388
G01 X57.1545 Y1.1249
G01 X57.1650 Y1.1027
G01 X57.1753 Y1.0860
G01 X57.1872 Y1.0704
G01 X57.2005 Y1.0560
G01 X57.2152 Y1.0430
G01 X57.2311 Y1.0315
G01 X57.2481 Y1.0216
G01 X57.2614 Y1.0153
G01 X57.2798 Y1.0085
G01 X57.3036 Y1.0025
G01 X57.3182 Y1.0004
G01 X57.3378 Y0.9992
G01 X57.3574 Y0.9999
G01 X57.3817 Y1.0035
G01 X57.4006 Y1.0085
G01 X57.4190 Y1.0153
G01 X57.4323 Y1.0216
G01 X57.4493 Y1.0315
G01 X57.4690 Y1.0461
G01 X57.4834 Y1.0595
G01 X57.4964 Y1.0742
G01 X57.5052 Y1.0860
G01 X57.5155 Y1.1027
G01 X57.5260 Y1.1249
G01 X57.5323 Y1.1435
G01 X57.5369 Y1.1626
G01 X57.5395 Y1.1820
G01 X57.5402 Y1.1967
G01 X57.5403 Y1.9684
G01 X57.6017 Y1.9991
G01 X57.7216 Y1.9991
G01 X57.7625 Y1.9786
G01 X57.7830 Y1.9377
G01 X57.7830 Y1.1992
G01 X57.7838 Y1.1820
G01 X57.7864 Y1.1626
G01 X57.7910 Y1.1435
G01 X57.7974 Y1.1249
G01 X57.8055 Y1.1070
G01 X57.8181 Y1.0860
G01 X57.8269 Y1.0742
G01 X57.8399 Y1.0595
G01 X57.8543 Y1.0461
G01 X57.8699 Y1.0342
G01 X57.8910 Y1.0216
G01 X57.9088 Y1.0134
G01 X57.9274 Y1.0071
G01 X57.9465 Y1.0025
G01 X57.9610 Y1.0004
G01 X57.9806 Y0.9992
G01 X58.0002 Y0.9999
G01 X58.0245 Y1.0035
G01 X58.0435 Y1.0085
G01 X58.0574 Y1.0134
G01 X58.0752 Y1.0216
G01 X58.0922 Y1.0315
G01 X58.1119 Y1.0461
G01 X58.1262 Y1.0595
G01 X58.1393 Y1.0742
G01 X58.1508 Y1.0901
G01 X58.1606 Y1.1070
G01 X58.1688 Y1.1249
G01 X58.1752 Y1.1435
G01 X58.1797 Y1.1626
G01 X58.1824 Y1.1820
G01 X58.1832 Y1.1992
G01 X58.1832 Y1.9849
G01 X58.1828 Y1.9966
G01 X58.1807 Y2.0161
G01 X58.1788 Y2.0263
G01 X58.1738 Y2.0453
G01 X58.1669 Y2.0637
G01 X58.1620 Y2.0744
G01 X58.0906 Y2.2172
G01 X58.0842 Y2.2289
G01 X58.0796 Y2.2364
G01 X58.0712 Y2.2484
G01 X58.0644 Y2.2569
G01 X58.0510 Y2.2713
G01 X58.0362 Y2.2842
G01 X58.0203 Y2.2957
G01 X58.0086 Y2.3027
G01 X57.8561 Y2.3792
G01 X57.8431 Y2.3849
G01 X57.8292 Y2.3899
G01 X57.8193 Y2.3927
G01 X57.8054 Y2.3958
G01 X57.7860 Y2.3985
G01 X57.7688 Y2.3992
G01 X57.5545 Y2.3992
G01 X57.5379 Y2.3985
G01 X57.5179 Y2.3958
G01 X57.5040 Y2.3927
G01 X57.4941 Y2.3899
G01 X57.4757 Y2.3830
G01 X57.4650 Y2.3781
G01 X57.4462 Y2.3687
G01 X57.4323 Y2.3767
G01 X57.4145 Y2.3849
G01 X57.4006 Y2.3899
G01 X57.3817 Y2.3949
G01 X57.3574 Y2.3985
G01 X57.3378 Y2.3992
G01 X57.3231 Y2.3985
G01 X57.3036 Y2.3958
G01 X57.2845 Y2.3913
G01 X57.2659 Y2.3849
G01 X57.2481 Y2.3767
G01 X57.2311 Y2.3668
G01 X57.2152 Y2.3553
G01 X57.1971 Y2.3389
G01 X57.1841 Y2.3242
G01 X57.1726 Y2.3083
G01 X57.1627 Y2.2913
G01 X57.1545 Y2.2734
G01 X57.1481 Y2.2549
G01 X57.1436 Y2.2358
G01 X57.1409 Y2.2163
G01 X57.1401 Y2.1992
G00 Z2.0000
G00 X58.4259 Y1.9135
G01 F60.00
G01 Z-2.4000
G01 F120.00
G01 X58.4259 Y1.4849
G01 X58.4266 Y1.4683
G01 X58.4284 Y1.4536
G01 X58.4302 Y1.4435
G01 X58.4337 Y1.4297
G01 X58.4400 Y1.4111
G01 X58.4470 Y1.3954
G01 X58.5184 Y1.2526
G01 X58.5268 Y1.2376
G01 X58.5324 Y1.2289
G01 X58.5412 Y1.2170
G01 X58.5538 Y1.2027
G01 X58.6273 Y1.1291
G01 X58.6400 Y1.1175
G01 X58.6556 Y1.1057
G01 X58.6643 Y1.1000
G01 X58.6793 Y1.0916
G01 X58.8222 Y1.0202
G01 X58.8374 Y1.0134
G01 X58.8512 Y1.0085
G01 X58.8612 Y1.0056
G01 X58.8750 Y1.0025
G01 X58.8945 Y0.9999
G01 X58.9117 Y0.9991
G01 X59.1974 Y0.9991
G01 X59.2091 Y0.9995
G01 X59.2286 Y1.0016
G01 X59.2388 Y1.0035
G01 X59.2578 Y1.0085
G01 X59.2762 Y1.0153
G01 X59.2868 Y1.0202
G01 X59.4319 Y1.0928
G01 X59.4489 Y1.1026
G01 X59.4609 Y1.1111
G01 X59.4760 Y1.1237
G01 X59.4897 Y1.1377
G01 X59.5049 Y1.1570
G01 X59.5152 Y1.1737
G01 X59.5239 Y1.1913
G01 X59.5308 Y1.2097
G01 X59.5358 Y1.2286
G01 X59.5384 Y1.2431
G01 X59.5401 Y1.2627
G01 X59.5399 Y1.2823
G01 X59.5378 Y1.3018
G01 X59.5338 Y1.3211
G01 X59.5262 Y1.3444
G01 X59.5180 Y1.3622
G01 X59.5082 Y1.3792
G01 X59.4967 Y1.3952
G01 X59.4838 Y1.4099
G01 X59.4694 Y1.4233
G01 X59.4538 Y1.4352
G01 X59.4371 Y1.4456
G01 X59.4195 Y1.4542
G01 X59.4058 Y1.4596
G01 X59.3822 Y1.4662
G01 X59.3628 Y1.4694
G01 X59.3481 Y1.4705
G01 X59.3236 Y1.4699
G01 X59.3090 Y1.4682
G01 X59.2898 Y1.4642
G01 X59.2665 Y1.4565
G01 X59.2507 Y1.4496
G01 X59.1501 Y1.3992
G01 X58.9589 Y1.3992
G01 X58.8873 Y1.4350
G01 X58.8618 Y1.4605
G01 X58.8260 Y1.5321
G01 X58.8260 Y1.8662
G01 X58.8618 Y1.9378
G01 X58.8873 Y1.9633
G01 X58.9589 Y1.9991
G01 X59.1501 Y1.9991
G01 X59.2507 Y1.9488
G01 X59.2665 Y1.9418
G01 X59.2898 Y1.9342
G01 X59.3090 Y1.9302
G01 X59.3236 Y1.9284
G01 X59.3432 Y1.9277
G01 X59.3628 Y1.9290
G01 X59.3870 Y1.9333
G01 X59.4058 Y1.9388
G01 X59.4195 Y1.9441
G01 X59.4414 Y1.9552
G01 X59.4538 Y1.9631
G01 X59.4694 Y1.9750
G01 X59.4838 Y1.9884
G01 X59.4997 Y2.0070
G01 X59.5108 Y2.0233
G01 X59.5202 Y2.0405
G01 X59.5262 Y2.0540
G01 X59.5325 Y2.0725
G01 X59.5370 Y2.0917
G01 X59.5399 Y2.1160
G01 X59.5402 Y2.1307
G01 X59.5390 Y2.1503
G01 X59.5358 Y2.1697
G01 X59.5292 Y2.1933
G01 X59.5219 Y2.2115
G01 X59.5128 Y2.2289
G01 X59.5049 Y2.2413
G01 X59.4929 Y2.2569
G01 X59.4795 Y2.2713
G01 X59.4609 Y2.2873
G01 X59.4447 Y2.2983
G01 X59.4297 Y2.3067
G01 X59.2868 Y2.3781
G01 X59.2716 Y2.3849
G01 X59.2578 Y2.3899
G01 X59.2388 Y2.3949
G01 X59.2286 Y2.3967
G01 X59.2140 Y2.3985
G01 X59.1974 Y2.3992
G01 X58.9092 Y2.3992
G01 X58.8945 Y2.3985
G01 X58.8756 Y2.3959
G01 X58.8565 Y2.3914
G01 X58.8425 Y2.3869
G01 X58.8328 Y2.3830
G01 X58.8222 Y2.3781
G01 X58.6793 Y2.3067
G01 X58.6643 Y2.2983
G01 X58.6556 Y2.2927
G01 X58.6400 Y2.2808
G01 X58.6273 Y2.2692
G01 X58.5559 Y2.1978
G01 X58.5443 Y2.1851
G01 X58.5324 Y2.1695
G01 X58.5268 Y2.1608
G01 X58.5198 Y2.1484
G01 X58.4470 Y2.0029
G01 X58.4421 Y1.9923
G01 X58.4352 Y1.9739
G01 X58.4302 Y1.9549
G01 X58.4271 Y1.9355
G01 X58.4263 Y1.9252
G01 X58.4259 Y1.9135
G00 Z2.0000
G00 X59.7116 Y1.9135
G01 F60.00
G01 Z-2.4000
G01 F120.00
G01 X59.7116 Y1.4849
G01 X59.7123 Y1.4683
G01 X59.7141 Y1.4536
G01 X59.7160 Y1.4435
G01 X59.7195 Y1.4292
G01 X59.7257 Y1.4111
G01 X59.7327 Y1.3954
G01 X59.8041 Y1.2526
G01 X59.8125 Y1.2376
G01 X59.8181 Y1.2289
G01 X59.8269 Y1.2170
G01 X59.8395 Y1.2027
G01 X59.9130 Y1.1291
G01 X59.9188 Y1.1237
G01 X59.9299 Y1.1141
G01 X59.9413 Y1.1057
G01 X59.9500 Y1.1000
G01 X59.9650 Y1.0916
G01 X60.1101 Y1.0192
G01 X60.1282 Y1.0115
G01 X60.1417 Y1.0071
G01 X60.1559 Y1.0035
G01 X60.1753 Y1.0004
G01 X60.1856 Y0.9995
G01 X60.1974 Y0.9991
G01 X60.4117 Y0.9991
G01 X60.4283 Y0.9998
G01 X60.4429 Y1.0016
G01 X60.4621 Y1.0056
G01 X60.4721 Y1.0085
G01 X60.4859 Y1.0134
G01 X60.4989 Y1.0192
G01 X60.6440 Y1.0916
G01 X60.6510 Y1.0954
G01 X60.6636 Y1.1029
G01 X60.6791 Y1.1141
G01 X60.6903 Y1.1237
G01 X60.7674 Y1.2006
G01 X60.7729 Y1.2063
G01 X60.7824 Y1.2175
G01 X60.7909 Y1.2289
G01 X60.7965 Y1.2376
G01 X60.8049 Y1.2526
G01 X60.8763 Y1.3954
G01 X60.8812 Y1.4061
G01 X60.8850 Y1.4157
G01 X60.8895 Y1.4292
G01 X60.8931 Y1.4435
G01 X60.8949 Y1.4536
G01 X60.8967 Y1.4683
G01 X60.8974 Y1.4849
G01 X60.8974 Y1.9135
G01 X60.8971 Y1.9252
G01 X60.8962 Y1.9355
G01 X60.8940 Y1.9501
G01 X60.8909 Y1.9639
G01 X60.8850 Y1.9826
G01 X60.8812 Y1.9923
G01 X60.8763 Y2.0029
G01 X60.8049 Y2.1458
G01 X60.8012 Y2.1528
G01 X60.7936 Y2.1654
G01 X60.7824 Y2.1809
G01 X60.7729 Y2.1921
G01 X60.6960 Y2.2692
G01 X60.6903 Y2.2747
G01 X60.6791 Y2.2842
G01 X60.6677 Y2.2927
G01 X60.6590 Y2.2983
G01 X60.6440 Y2.3067
G01 X60.5011 Y2.3781
G01 X60.4905 Y2.3830
G01 X60.4808 Y2.3869
G01 X60.4674 Y2.3913
G01 X60.4531 Y2.3949
G01 X60.4429 Y2.3967
G01 X60.4283 Y2.3985
G01 X60.4117 Y2.3992
G01 X60.1974 Y2.3992
G01 X60.1856 Y2.3989
G01 X60.1661 Y2.3967
G01 X60.1559 Y2.3949
G01 X60.1417 Y2.3913
G01 X60.1231 Y2.3849
G01 X60.1079 Y2.3781
G01 X59.9650 Y2.3067
G01 X59.9500 Y2.2983
G01 X59.9413 Y2.2927
G01 X59.9257 Y2.2808
G01 X59.9130 Y2.2692
G01 X59.8416 Y2.1978
G01 X59.8300 Y2.1851
G01 X59.8181 Y2.1695
G01 X59.8125 Y2.1608
G01 X59.8055 Y2.1484
G01 X59.7327 Y2.0029
G01 X59.7278 Y1.9923
G01 X59.7210 Y1.9739
G01 X59.7160 Y1.9549
G01 X59.7128 Y1.9355
G01 X59.7120 Y1.9252
G01 X59.7116 Y1.9135
G00 Z2.0000
G00 X60.3644 Y1.3992
G01 F60.00
G01 Z-2.4000
G01 F120.00
G01 X60.4360 Y1.4350
G01 X60.4615 Y1.4605
G01 X60.4973 Y1.5321
G01 X60.4973 Y1.8662
G01 X60.4615 Y1.9378
G01 X60.4360 Y1.9633
G01 X60.3644 Y1.9991
G01 X60.2446 Y1.9991
G01 X60.1730 Y1.9633
G01 X60.1475 Y1.9378
G01 X60.1117 Y1.8662
G01 X60.1117 Y1.5321
G01 X60.1475 Y1.4605
G01 X60.1730 Y1.4350
G01 X60.2446 Y1.3992
G01 X60.3644 Y1.3992
G00 Z2.0000
G00 X61.1414 Y0.6771
G01 F60.00
G01 Z-2.4000
G01 F120.00
G01 X61.1445 Y0.6577
G01 X61.1495 Y0.6388
G01 X61.1545 Y0.6249
G01 X61.1627 Y0.6070
G01 X61.1753 Y0.5860
G01 X61.1841 Y0.5742
G01 X61.1971 Y0.5595
G01 X61.2114 Y0.5461
G01 X61.2271 Y0.5342
G01 X61.2481 Y0.5216
G01 X61.2659 Y0.5134
G01 X61.2798 Y0.5085
G01 X61.2988 Y0.5035
G01 X61.3231 Y0.4999
G01 X61.3427 Y0.4992
G01 X61.3623 Y0.5004
G01 X61.3768 Y0.5025
G01 X61.4006 Y0.5085
G01 X61.4190 Y0.5153
G01 X61.4323 Y0.5216
G01 X61.4493 Y0.5315
G01 X61.4652 Y0.5430
G01 X61.4799 Y0.5560
G01 X61.4933 Y0.5704
G01 X61.5052 Y0.5860
G01 X61.5155 Y0.6027
G01 X61.5241 Y0.6204
G01 X61.5309 Y0.6388
G01 X61.5369 Y0.6626
G01 X61.5395 Y0.6820
G01 X61.5403 Y0.6992
G01 X61.5403 Y0.9991
G01 X61.7688 Y0.9991
G01 X61.7805 Y0.9995
G01 X61.7908 Y1.0004
G01 X61.8102 Y1.0035
G01 X61.8292 Y1.0085
G01 X61.8431 Y1.0134
G01 X61.8561 Y1.0192
G01 X62.0011 Y1.0916
G01 X62.0161 Y1.1000
G01 X62.0248 Y1.1057
G01 X62.0362 Y1.1141
G01 X62.0474 Y1.1237
G01 X62.0531 Y1.1291
G01 X62.1246 Y1.2006
G01 X62.1361 Y1.2132
G01 X62.1426 Y1.2213
G01 X62.1537 Y1.2376
G01 X62.1620 Y1.2526
G01 X62.2335 Y1.3954
G01 X62.2402 Y1.4106
G01 X62.2466 Y1.4292
G01 X62.2512 Y1.4483
G01 X62.2538 Y1.4677
G01 X62.2546 Y1.4849
G01 X62.2545 Y1.9159
G01 X62.2533 Y1.9355
G01 X62.2512 Y1.9501
G01 X62.2466 Y1.9692
G01 X62.2402 Y1.9877
G01 X62.2335 Y2.0029
G01 X62.1583 Y2.1528
G01 X62.1508 Y2.1654
G01 X62.1426 Y2.1770
G01 X62.1361 Y2.1851
G01 X62.1246 Y2.1978
G01 X62.0474 Y2.2747
G01 X62.0362 Y2.2842
G01 X62.0207 Y2.2954
G01 X62.0081 Y2.3030
G01 X62.0011 Y2.3067
G01 X61.8583 Y2.3781
G01 X61.8431 Y2.3849
G01 X61.8245 Y2.3913
G01 X61.8054 Y2.3958
G01 X61.7860 Y2.3985
G01 X61.7688 Y2.3992
G01 X61.4831 Y2.3992
G01 X61.4714 Y2.3989
G01 X61.4518 Y2.3967
G01 X61.4417 Y2.3949
G01 X61.4274 Y2.3913
G01 X61.4115 Y2.3860
G01 X61.3959 Y2.3913
G01 X61.3817 Y2.3949
G01 X61.3574 Y2.3985
G01 X61.3378 Y2.3992
G01 X61.3182 Y2.3980
G01 X61.3036 Y2.3958
G01 X61.2845 Y2.3913
G01 X61.2614 Y2.3830
G01 X61.2481 Y2.3767
G01 X61.2311 Y2.3668
G01 X61.2114 Y2.3522
G01 X61.1971 Y2.3389
G01 X61.1841 Y2.3242
G01 X61.1753 Y2.3123
G01 X61.1627 Y2.2913
G01 X61.1545 Y2.2734
G01 X61.1481 Y2.2549
G01 X61.1436 Y2.2358
G01 X61.1409 Y2.2163
G01 X61.1401 Y2.1992
G01 X61.1401 Y0.6992
G01 X61.1414 Y0.6771
G00 Z2.0000
G00 X61.5403 Y1.9991
G01 F60.00
G01 Z-2.4000
G01 F120.00
G01 X61.5403 Y1.3992
G01 X61.7216 Y1.3992
G01 X61.7931 Y1.4350
G01 X61.8186 Y1.4605
G01 X61.8544 Y1.5321
G01 X61.8544 Y1.8662
G01 X61.8186 Y1.9378
G01 X61.7931 Y1.9633
G01 X61.7216 Y1.9991
G01 X61.5403 Y1.9991
G00 Z2.0000
G00 X62.4259 Y1.9849
G01 F60.00
G01 Z-2.4000
G01 F120.00
G01 X62.4259 Y1.4135
G01 X62.4266 Y1.3968
G01 X62.4284 Y1.3822
G01 X62.4302 Y1.3720
G01 X62.4337 Y1.3583
G01 X62.4383 Y1.3443
G01 X62.4421 Y1.3346
G01 X62.4470 Y1.3240
G01 X62.5184 Y1.1811
G01 X62.5248 Y1.1694
G01 X62.5294 Y1.1620
G01 X62.5409 Y1.1460
G01 X62.5538 Y1.1313
G01 X62.5682 Y1.1179
G01 X62.5838 Y1.1060
G01 X62.6004 Y1.0956
G01 X62.7507 Y1.0202
G01 X62.7614 Y1.0153
G01 X62.7710 Y1.0115
G01 X62.7845 Y1.0071
G01 X62.7988 Y1.0035
G01 X62.8182 Y1.0004
G01 X62.8285 Y0.9995
G01 X62.8402 Y0.9991
G01 X63.1284 Y0.9992
G01 X63.1426 Y0.9998
G01 X63.1572 Y1.0016
G01 X63.1764 Y1.0056
G01 X63.1951 Y1.0115
G01 X63.2047 Y1.0153
G01 X63.2154 Y1.0202
G01 X63.3583 Y1.0916
G01 X63.3733 Y1.1000
G01 X63.3934 Y1.1141
G01 X63.4081 Y1.1271
G01 X63.4215 Y1.1414
G01 X63.4334 Y1.1570
G01 X63.4438 Y1.1737
G01 X63.4524 Y1.1913
G01 X63.4578 Y1.2050
G01 X63.4633 Y1.2239
G01 X63.4675 Y1.2480
G01 X63.4688 Y1.2676
G01 X63.4681 Y1.2872
G01 X63.4655 Y1.3067
G01 X63.4611 Y1.3258
G01 X63.4547 Y1.3444
G01 X63.4488 Y1.3579
G01 X63.4394 Y1.3751
G01 X63.4283 Y1.3913
G01 X63.4157 Y1.4063
G01 X63.4017 Y1.4201
G01 X63.3824 Y1.4352
G01 X63.3657 Y1.4456
G01 X63.3481 Y1.4542
G01 X63.3344 Y1.4596
G01 X63.3108 Y1.4662
G01 X63.2962 Y1.4687
G01 X63.2767 Y1.4705
G01 X63.2522 Y1.4699
G01 X63.2375 Y1.4682
G01 X63.2183 Y1.4642
G01 X63.1950 Y1.4565
G01 X63.1793 Y1.4496
G01 X63.0787 Y1.3992
G01 X62.8875 Y1.3992
G01 X62.8465 Y1.4197
G01 X62.8260 Y1.4607
G01 X62.8260 Y1.5351
G01 X63.3795 Y1.6458
G01 X63.3983 Y1.6506
G01 X63.4168 Y1.6572
G01 X63.4323 Y1.6645
G01 X63.4369 Y1.6669
G01 X63.4536 Y1.6772
G01 X63.4673 Y1.6875
G01 X63.4818 Y1.7007
G01 X63.4950 Y1.7152
G01 X63.5066 Y1.7309
G01 X63.5168 Y1.7479
G01 X63.5260 Y1.7679
G01 X63.5317 Y1.7840
G01 X63.5359 Y1.8006
G01 X63.5393 Y1.8224
G01 X63.5403 Y1.8420
G01 X63.5403 Y1.9849
G01 X63.5395 Y2.0020
G01 X63.5369 Y2.0215
G01 X63.5338 Y2.0353
G01 X63.5309 Y2.0453
G01 X63.5260 Y2.0592
G01 X63.5202 Y2.0721
G01 X63.4438 Y2.2247
G01 X63.4368 Y2.2364
G01 X63.4253 Y2.2523
G01 X63.4123 Y2.2671
G01 X63.3980 Y2.2805
G01 X63.3824 Y2.2924
G01 X63.3657 Y2.3027
G01 X63.2154 Y2.3781
G01 X63.2002 Y2.3849
G01 X63.1863 Y2.3899
G01 X63.1764 Y2.3927
G01 X63.1620 Y2.3959
G01 X63.1431 Y2.3985
G01 X63.1259 Y2.3992
G01 X62.8402 Y2.3992
G01 X62.8236 Y2.3985
G01 X62.8090 Y2.3967
G01 X62.7988 Y2.3949
G01 X62.7798 Y2.3899
G01 X62.7659 Y2.3849
G01 X62.7507 Y2.3781
G01 X62.6004 Y2.3027
G01 X62.5887 Y2.2957
G01 X62.5728 Y2.2842
G01 X62.5616 Y2.2747
G01 X62.5479 Y2.2606
G01 X62.5409 Y2.2523
G01 X62.5327 Y2.2413
G01 X62.5224 Y2.2247
G01 X62.4470 Y2.0744
G01 X62.4421 Y2.0637
G01 X62.4352 Y2.0453
G01 X62.4302 Y2.0263
G01 X62.4271 Y2.0069
G01 X62.4263 Y1.9966
G01 X62.4259 Y1.9849
G00 Z2.0000
G00 X62.8291 Y1.9438
G01 F60.00
G01 Z-2.4000
G01 F120.00
G01 X63.0863 Y1.9953
G01 X63.0787 Y1.9991
G01 X62.8875 Y1.9991
G01 X62.8465 Y1.9786
G01 X62.8291 Y1.9438
G00 Z2.0000
G00 X63.7830 Y2.6992
G01 F60.00
G01 Z-2.4000
G01 F120.00
G01 X63.7830 Y1.4135
G01 X63.7834 Y1.4017
G01 X63.7843 Y1.3914
G01 X63.7863 Y1.3774
G01 X63.7895 Y1.3630
G01 X63.7954 Y1.3443
G01 X63.7992 Y1.3346
G01 X63.8041 Y1.3240
G01 X63.8795 Y1.1737
G01 X63.8899 Y1.1570
G01 X63.9018 Y1.1414
G01 X63.9152 Y1.1271
G01 X63.9299 Y1.1141
G01 X63.9459 Y1.1026
G01 X63.9533 Y1.0980
G01 X63.9650 Y1.0916
G01 X64.1079 Y1.0202
G01 X64.1282 Y1.0115
G01 X64.1469 Y1.0056
G01 X64.1613 Y1.0024
G01 X64.1856 Y0.9995
G01 X64.2004 Y0.9992
G01 X64.2199 Y1.0004
G01 X64.2441 Y1.0047
G01 X64.2629 Y1.0102
G01 X64.2812 Y1.0175
G01 X64.2986 Y1.0266
G01 X64.3110 Y1.0345
G01 X64.3266 Y1.0465
G01 X64.3409 Y1.0599
G01 X64.3569 Y1.0785
G01 X64.3653 Y1.0905
G01 X64.3752 Y1.1075
G01 X64.3833 Y1.1254
G01 X64.3896 Y1.1440
G01 X64.3941 Y1.1631
G01 X64.3967 Y1.1825
G01 X64.3972 Y1.2071
G01 X64.3955 Y1.2266
G01 X64.3919 Y1.2459
G01 X64.3863 Y1.2648
G01 X64.3810 Y1.2785
G01 X64.3699 Y1.3004
G01 X64.3620 Y1.3128
G01 X64.3501 Y1.3284
G01 X64.3331 Y1.3461
G01 X64.3181 Y1.3587
G01 X64.3018 Y1.3697
G01 X64.2868 Y1.3781
G01 X64.2036 Y1.4197
G01 X64.1832 Y1.4607
G01 X64.1832 Y2.6992
G01 X64.1819 Y2.7212
G01 X64.1797 Y2.7358
G01 X64.1752 Y2.7549
G01 X64.1669 Y2.7780
G01 X64.1583 Y2.7956
G01 X64.1480 Y2.8123
G01 X64.1361 Y2.8280
G01 X64.1228 Y2.8423
G01 X64.1081 Y2.8553
G01 X64.0962 Y2.8641
G01 X64.0795 Y2.8744
G01 X64.0619 Y2.8830
G01 X64.0435 Y2.8899
G01 X64.0245 Y2.8949
G01 X64.0051 Y2.8980
G01 X63.9855 Y2.8992
G01 X63.9610 Y2.8980
G01 X63.9465 Y2.8958
G01 X63.9274 Y2.8913
G01 X63.9088 Y2.8849
G01 X63.8910 Y2.8767
G01 X63.8740 Y2.8668
G01 X63.8581 Y2.8553
G01 X63.8434 Y2.8423
G01 X63.8300 Y2.8280
G01 X63.8181 Y2.8123
G01 X63.8078 Y2.7956
G01 X63.7974 Y2.7734
G01 X63.7910 Y2.7549
G01 X63.7864 Y2.7358
G01 X63.7838 Y2.7163
G01 X63.7830 Y2.6992
G00 Z2.0000
G00 X64.9013 Y1.9703
G01 F60.00
G01 Z-2.4000
G01 F120.00
G01 X64.9117 Y1.9707
G01 X65.1951 Y1.9707
G01 X65.1911 Y1.9786
G01 X65.1501 Y1.9991
G01 X64.9589 Y1.9991
G01 X64.9013 Y1.9703
G00 Z2.0000
G00 X64.9179 Y1.4197
G01 F60.00
G01 Z-2.4000
G01 F120.00
G01 X64.9589 Y1.3992
G01 X65.2116 Y1.3992
G01 X65.2116 Y1.5705
G01 X64.9589 Y1.5705
G01 X64.9179 Y1.5500
G01 X64.8974 Y1.5091
G01 X64.8974 Y1.4607
G01 X64.9179 Y1.4197
G00 Z2.0000
G00 X64.4973 Y1.5563
G01 F60.00
G01 Z-2.4000
G01 F120.00
G01 X64.4973 Y1.4135
G01 X64.4977 Y1.4017
G01 X64.4998 Y1.3822
G01 X64.5017 Y1.3720
G01 X64.5053 Y1.3577
G01 X64.5114 Y1.3397
G01 X64.5184 Y1.3240
G01 X64.5898 Y1.1811
G01 X64.5962 Y1.1694
G01 X64.6042 Y1.1570
G01 X64.6123 Y1.1460
G01 X64.6193 Y1.1377
G01 X64.6295 Y1.1271
G01 X64.6359 Y1.1211
G01 X64.6442 Y1.1141
G01 X64.6552 Y1.1060
G01 X64.6676 Y1.0981
G01 X64.6793 Y1.0916
G01 X64.8222 Y1.0202
G01 X64.8328 Y1.0153
G01 X64.8512 Y1.0085
G01 X64.8702 Y1.0035
G01 X64.8804 Y1.0016
G01 X64.8999 Y0.9995
G01 X64.9117 Y0.9991
G01 X65.2712 Y0.9992
G01 X65.2908 Y1.0004
G01 X65.3054 Y1.0025
G01 X65.3240 Y1.0069
G01 X65.3403 Y1.0124
G01 X65.3559 Y1.0071
G01 X65.3702 Y1.0035
G01 X65.3896 Y1.0004
G01 X65.4092 Y0.9992
G01 X65.4288 Y0.9999
G01 X65.4531 Y1.0035
G01 X65.4721 Y1.0085
G01 X65.4859 Y1.0134
G01 X65.5038 Y1.0216
G01 X65.5248 Y1.0342
G01 X65.5404 Y1.0461
G01 X65.5548 Y1.0595
G01 X65.5678 Y1.0742
G01 X65.5766 Y1.0860
G01 X65.5869 Y1.1027
G01 X65.5955 Y1.1204
G01 X65.6023 Y1.1388
G01 X65.6073 Y1.1577
G01 X65.6109 Y1.1820
G01 X65.6117 Y1.1992
G01 X65.6117 Y1.9849
G01 X65.6113 Y1.9966
G01 X65.6105 Y2.0069
G01 X65.6073 Y2.0263
G01 X65.6023 Y2.0453
G01 X65.5955 Y2.0637
G01 X65.5906 Y2.0744
G01 X65.5192 Y2.2172
G01 X65.5128 Y2.2289
G01 X65.5049 Y2.2413
G01 X65.4967 Y2.2523
G01 X65.4897 Y2.2606
G01 X65.4795 Y2.2713
G01 X65.4731 Y2.2772
G01 X65.4648 Y2.2842
G01 X65.4538 Y2.2924
G01 X65.4447 Y2.2983
G01 X65.4319 Y2.3055
G01 X65.2868 Y2.3781
G01 X65.2762 Y2.3830
G01 X65.2578 Y2.3899
G01 X65.2388 Y2.3949
G01 X65.2286 Y2.3967
G01 X65.2091 Y2.3989
G01 X65.1974 Y2.3992
G01 X64.9117 Y2.3992
G01 X64.8945 Y2.3985
G01 X64.8750 Y2.3958
G01 X64.8612 Y2.3927
G01 X64.8512 Y2.3899
G01 X64.8374 Y2.3849
G01 X64.8244 Y2.3792
G01 X64.6793 Y2.3067
G01 X64.6602 Y2.2957
G01 X64.6481 Y2.2873
G01 X64.6330 Y2.2747
G01 X64.6161 Y2.2569
G01 X64.6042 Y2.2413
G01 X64.5962 Y2.2289
G01 X64.5872 Y2.2115
G01 X64.5798 Y2.1933
G01 X64.5743 Y2.1745
G01 X64.5707 Y2.1552
G01 X64.5688 Y2.1307
G01 X64.5695 Y2.1111
G01 X64.5712 Y2.0965
G01 X64.5765 Y2.0725
G01 X64.5829 Y2.0540
G01 X64.5910 Y2.0361
G01 X64.6008 Y2.0191
G01 X64.6093 Y2.0070
G01 X64.6253 Y1.9884
G01 X64.6359 Y1.9782
G01 X64.6512 Y1.9659
G01 X64.6719 Y1.9528
G01 X64.6895 Y1.9441
G01 X64.7079 Y1.9372
G01 X64.7268 Y1.9322
G01 X64.7413 Y1.9296
G01 X64.7609 Y1.9279
G01 X64.7791 Y1.9280
G01 X64.6793 Y1.8781
G01 X64.6676 Y1.8717
G01 X64.6602 Y1.8671
G01 X64.6481 Y1.8587
G01 X64.6330 Y1.8461
G01 X64.6219 Y1.8349
G01 X64.6093 Y1.8199
G01 X64.5982 Y1.8036
G01 X64.5898 Y1.7886
G01 X64.5184 Y1.6458
G01 X64.5135 Y1.6351
G01 X64.5067 Y1.6167
G01 X64.5017 Y1.5977
G01 X64.4986 Y1.5784
G01 X64.4977 Y1.5680
G01 X64.4973 Y1.5563
G00 Z2.0000
G00 X65.9259 Y2.1992
G01 F60.00
G01 Z-2.4000
G01 F120.00
G01 X65.9259 Y1.1967
G01 X65.9271 Y1.1771
G01 X65.9302 Y1.1577
G01 X65.9352 Y1.1388
G01 X65.9402 Y1.1249
G01 X65.9507 Y1.1027
G01 X65.9610 Y1.0860
G01 X65.9729 Y1.0704
G01 X65.9862 Y1.0560
G01 X66.0009 Y1.0430
G01 X66.0169 Y1.0315
G01 X66.0338 Y1.0216
G01 X66.0471 Y1.0153
G01 X66.0655 Y1.0085
G01 X66.0893 Y1.0025
G01 X66.1039 Y1.0004
G01 X66.1235 Y0.9992
G01 X66.1431 Y0.9999
G01 X66.1674 Y1.0035
G01 X66.1863 Y1.0085
G01 X66.2047 Y1.0153
G01 X66.2181 Y1.0216
G01 X66.2350 Y1.0315
G01 X66.2547 Y1.0461
G01 X66.2691 Y1.0595
G01 X66.2821 Y1.0742
G01 X66.2909 Y1.0860
G01 X66.3012 Y1.1027
G01 X66.3117 Y1.1249
G01 X66.3181 Y1.1435
G01 X66.3226 Y1.1626
G01 X66.3252 Y1.1820
G01 X66.3260 Y1.1967
G01 X66.3260 Y1.9684
G01 X66.3875 Y1.9991
G01 X66.5073 Y1.9991
G01 X66.5482 Y1.9786
G01 X66.5687 Y1.9377
G01 X66.5687 Y1.1992
G01 X66.5695 Y1.1820
G01 X66.5721 Y1.1626
G01 X66.5767 Y1.1435
G01 X66.5831 Y1.1249
G01 X66.5912 Y1.1070
G01 X66.6039 Y1.0860
G01 X66.6126 Y1.0742
G01 X66.6256 Y1.0595
G01 X66.6400 Y1.0461
G01 X66.6556 Y1.0342
G01 X66.6767 Y1.0216
G01 X66.6945 Y1.0134
G01 X66.7131 Y1.0071
G01 X66.7322 Y1.0025
G01 X66.7467 Y1.0004
G01 X66.7663 Y0.9992
G01 X66.7860 Y0.9999
G01 X66.8102 Y1.0035
G01 X66.8292 Y1.0085
G01 X66.8431 Y1.0134
G01 X66.8609 Y1.0216
G01 X66.8820 Y1.0342
G01 X66.8976 Y1.0461
G01 X66.9120 Y1.0595
G01 X66.9250 Y1.0742
G01 X66.9365 Y1.0901
G01 X66.9463 Y1.1070
G01 X66.9545 Y1.1249
G01 X66.9609 Y1.1435
G01 X66.9654 Y1.1626
G01 X66.9681 Y1.1820
G01 X66.9689 Y1.1992
G01 X66.9689 Y1.9849
G01 X66.9685 Y1.9966
G01 X66.9664 Y2.0161
G01 X66.9645 Y2.0263
G01 X66.9595 Y2.0453
G01 X66.9526 Y2.0637
G01 X66.9477 Y2.0744
G01 X66.8763 Y2.2172
G01 X66.8699 Y2.2289
G01 X66.8653 Y2.2364
G01 X66.8569 Y2.2484
G01 X66.8501 Y2.2569
G01 X66.8367 Y2.2713
G01 X66.8219 Y2.2842
G01 X66.8060 Y2.2957
G01 X66.7943 Y2.3027
G01 X66.6418 Y2.3792
G01 X66.6288 Y2.3849
G01 X66.6149 Y2.3899
G01 X66.6050 Y2.3927
G01 X66.5911 Y2.3958
G01 X66.5717 Y2.3985
G01 X66.5545 Y2.3992
G01 X66.3402 Y2.3992
G01 X66.3236 Y2.3985
G01 X66.3036 Y2.3958
G01 X66.2898 Y2.3927
G01 X66.2798 Y2.3899
G01 X66.2614 Y2.3830
G01 X66.2507 Y2.3781
G01 X66.2319 Y2.3687
G01 X66.2181 Y2.3767
G01 X66.2002 Y2.3849
G01 X66.1863 Y2.3899
G01 X66.1674 Y2.3949
G01 X66.1431 Y2.3985
G01 X66.1235 Y2.3992
G01 X66.1088 Y2.3985
G01 X66.0893 Y2.3958
G01 X66.0702 Y2.3913
G01 X66.0517 Y2.3849
G01 X66.0338 Y2.3767
G01 X66.0169 Y2.3668
G01 X66.0009 Y2.3553
G01 X65.9828 Y2.3389
G01 X65.9698 Y2.3242
G01 X65.9583 Y2.3083
G01 X65.9484 Y2.2913
G01 X65.9402 Y2.2734
G01 X65.9338 Y2.2549
G01 X65.9293 Y2.2358
G01 X65.9266 Y2.2163
G01 X65.9259 Y2.1992
G00 Z2.0000
G00 X67.2116 Y1.9135
G01 F60.00
G01 Z-2.4000
G01 F120.00
G01 X67.2116 Y1.4849
G01 X67.2120 Y1.4732
G01 X67.2128 Y1.4628
G01 X67.2150 Y1.4483
G01 X67.2181 Y1.4344
G01 X67.2240 Y1.4157
G01 X67.2278 Y1.4061
G01 X67.2327 Y1.3954
G01 X67.3041 Y1.2526
G01 X67.3078 Y1.2456
G01 X67.3154 Y1.2329
G01 X67.3269 Y1.2170
G01 X67.3362 Y1.2063
G01 X67.3416 Y1.2006
G01 X67.4130 Y1.1291
G01 X67.4257 Y1.1175
G01 X67.4413 Y1.1057
G01 X67.4500 Y1.1000
G01 X67.4624 Y1.0930
G01 X67.6101 Y1.0192
G01 X67.6236 Y1.0132
G01 X67.6422 Y1.0069
G01 X67.6608 Y1.0025
G01 X67.6802 Y0.9999
G01 X67.6974 Y0.9991
G01 X67.9855 Y0.9992
G01 X68.0051 Y1.0004
G01 X68.0197 Y1.0025
G01 X68.0383 Y1.0069
G01 X68.0546 Y1.0124
G01 X68.0702 Y1.0071
G01 X68.0845 Y1.0035
G01 X68.1039 Y1.0004
G01 X68.1235 Y0.9992
G01 X68.1431 Y0.9999
G01 X68.1626 Y1.0025
G01 X68.1817 Y1.0071
G01 X68.2047 Y1.0153
G01 X68.2181 Y1.0216
G01 X68.2350 Y1.0315
G01 X68.2547 Y1.0461
G01 X68.2691 Y1.0595
G01 X68.2821 Y1.0742
G01 X68.2936 Y1.0901
G01 X68.3035 Y1.1070
G01 X68.3098 Y1.1204
G01 X68.3166 Y1.1388
G01 X68.3216 Y1.1577
G01 X68.3248 Y1.1771
G01 X68.3260 Y1.1992
G01 X68.3260 Y2.7016
G01 X68.3248 Y2.7212
G01 X68.3216 Y2.7406
G01 X68.3166 Y2.7596
G01 X68.3117 Y2.7734
G01 X68.3012 Y2.7956
G01 X68.2909 Y2.8123
G01 X68.2790 Y2.8280
G01 X68.2656 Y2.8423
G01 X68.2509 Y2.8553
G01 X68.2350 Y2.8668
G01 X68.2181 Y2.8767
G01 X68.2002 Y2.8849
G01 X68.1817 Y2.8913
G01 X68.1626 Y2.8958
G01 X68.1431 Y2.8985
G01 X68.1235 Y2.8992
G01 X68.1039 Y2.8980
G01 X68.0845 Y2.8949
G01 X68.0655 Y2.8899
G01 X68.0471 Y2.8830
G01 X68.0295 Y2.8744
G01 X68.0128 Y2.8641
G01 X67.9972 Y2.8522
G01 X67.9828 Y2.8389
G01 X67.9729 Y2.8280
G01 X67.9610 Y2.8123
G01 X67.9507 Y2.7956
G01 X67.9402 Y2.7734
G01 X67.9338 Y2.7549
G01 X67.9293 Y2.7358
G01 X67.9266 Y2.7163
G01 X67.9259 Y2.6992
G01 X67.9259 Y2.3992
G01 X67.6974 Y2.3992
G01 X67.6856 Y2.3989
G01 X67.6753 Y2.3980
G01 X67.6559 Y2.3949
G01 X67.6422 Y2.3914
G01 X67.6282 Y2.3869
G01 X67.6186 Y2.3830
G01 X67.6079 Y2.3781
G01 X67.4650 Y2.3067
G01 X67.4500 Y2.2983
G01 X67.4413 Y2.2927
G01 X67.4295 Y2.2839
G01 X67.4152 Y2.2713
G01 X67.3416 Y2.1978
G01 X67.3362 Y2.1921
G01 X67.3266 Y2.1809
G01 X67.3181 Y2.1695
G01 X67.3125 Y2.1608
G01 X67.3041 Y2.1458
G01 X67.2327 Y2.0029
G01 X67.2259 Y1.9877
G01 X67.2195 Y1.9692
G01 X67.2150 Y1.9501
G01 X67.2124 Y1.9306
G01 X67.2116 Y1.9135
G00 Z2.0000
G00 X67.9259 Y1.3992
G01 F60.00
G01 Z-2.4000
G01 F120.00
G01 X67.9259 Y1.9991
G01 X67.7446 Y1.9991
G01 X67.6730 Y1.9633
G01 X67.6475 Y1.9378
G01 X67.6117 Y1.8662
G01 X67.6117 Y1.5321
G01 X67.6475 Y1.4605
G01 X67.6730 Y1.4350
G01 X67.7446 Y1.3992
G01 X67.9259 Y1.3992
G00 Z2.0000
G00 X68.5689 Y2.0612
G01 F60.00
G01 Z-2.4000
G01 F120.00
G01 X68.5687 Y1.4849
G01 X68.5691 Y1.4732
G01 X68.5700 Y1.4628
G01 X68.5731 Y1.4435
G01 X68.5765 Y1.4297
G01 X68.5811 Y1.4157
G01 X68.5849 Y1.4061
G01 X68.5898 Y1.3954
G01 X68.6613 Y1.2526
G01 X68.6650 Y1.2456
G01 X68.6726 Y1.2329
G01 X68.6841 Y1.2170
G01 X68.6933 Y1.2063
G01 X68.6987 Y1.2006
G01 X68.7702 Y1.1291
G01 X68.7829 Y1.1175
G01 X68.7910 Y1.1111
G01 X68.8072 Y1.1000
G01 X68.8222 Y1.0916
G01 X68.9650 Y1.0202
G01 X68.9802 Y1.0134
G01 X68.9941 Y1.0085
G01 X69.0040 Y1.0056
G01 X69.0179 Y1.0025
G01 X69.0373 Y0.9999
G01 X69.0545 Y0.9991
G01 X69.3402 Y0.9991
G01 X69.3520 Y0.9995
G01 X69.3623 Y1.0004
G01 X69.3763 Y1.0024
G01 X69.3907 Y1.0056
G01 X69.4094 Y1.0115
G01 X69.4190 Y1.0153
G01 X69.4297 Y1.0202
G01 X69.5726 Y1.0916
G01 X69.5876 Y1.1000
G01 X69.5962 Y1.1057
G01 X69.6077 Y1.1141
G01 X69.6188 Y1.1237
G01 X69.6246 Y1.1291
G01 X69.6960 Y1.2006
G01 X69.7076 Y1.2132
G01 X69.7140 Y1.2213
G01 X69.7251 Y1.2376
G01 X69.7335 Y1.2526
G01 X69.8049 Y1.3954
G01 X69.8098 Y1.4061
G01 X69.8166 Y1.4245
G01 X69.8216 Y1.4435
G01 X69.8248 Y1.4628
G01 X69.8256 Y1.4732
G01 X69.8260 Y1.4849
G01 X69.8260 Y1.8420
G01 X69.8253 Y1.8587
G01 X69.8235 Y1.8733
G01 X69.8216 Y1.8835
G01 X69.8182 Y1.8972
G01 X69.8136 Y1.9112
G01 X69.8098 Y1.9208
G01 X69.8049 Y1.9315
G01 X69.7298 Y2.0813
G01 X69.7225 Y2.0935
G01 X69.7140 Y2.1056
G01 X69.7014 Y2.1206
G01 X69.6246 Y2.1978
G01 X69.6119 Y2.2094
G01 X69.6038 Y2.2158
G01 X69.5876 Y2.2269
G01 X69.5726 Y2.2353
G01 X69.4297 Y2.3067
G01 X69.4190 Y2.3116
G01 X69.4094 Y2.3154
G01 X69.3959 Y2.3199
G01 X69.3817 Y2.3234
G01 X69.3715 Y2.3253
G01 X69.3520 Y2.3274
G01 X69.3402 Y2.3278
G01 X69.0712 Y2.3278
G01 X69.1386 Y2.4288
G01 X69.1730 Y2.4633
G01 X69.2446 Y2.4991
G01 X69.4831 Y2.4991
G01 X69.5002 Y2.4999
G01 X69.5197 Y2.5025
G01 X69.5435 Y2.5085
G01 X69.5574 Y2.5134
G01 X69.5752 Y2.5216
G01 X69.5922 Y2.5315
G01 X69.6081 Y2.5430
G01 X69.6262 Y2.5595
G01 X69.6393 Y2.5742
G01 X69.6480 Y2.5860
G01 X69.6583 Y2.6027
G01 X69.6669 Y2.6204
G01 X69.6738 Y2.6388
G01 X69.6788 Y2.6577
G01 X69.6819 Y2.6771
G01 X69.6831 Y2.6967
G01 X69.6824 Y2.7163
G01 X69.6788 Y2.7406
G01 X69.6738 Y2.7596
G01 X69.6669 Y2.7780
G01 X69.6583 Y2.7956
G01 X69.6480 Y2.8123
G01 X69.6393 Y2.8242
G01 X69.6262 Y2.8389
G01 X69.6119 Y2.8522
G01 X69.5962 Y2.8641
G01 X69.5752 Y2.8767
G01 X69.5574 Y2.8849
G01 X69.5435 Y2.8899
G01 X69.5245 Y2.8949
G01 X69.5002 Y2.8985
G01 X69.4831 Y2.8992
G01 X69.1974 Y2.8992
G01 X69.1856 Y2.8989
G01 X69.1753 Y2.8980
G01 X69.1608 Y2.8958
G01 X69.1422 Y2.8914
G01 X69.1236 Y2.8851
G01 X69.1101 Y2.8792
G01 X68.9650 Y2.8067
G01 X68.9581 Y2.8030
G01 X68.9459 Y2.7957
G01 X68.9299 Y2.7842
G01 X68.9188 Y2.7747
G01 X68.9130 Y2.7692
G01 X68.8415 Y2.6977
G01 X68.8268 Y2.6811
G01 X68.8167 Y2.6674
G01 X68.6738 Y2.4530
G01 X68.6674 Y2.4427
G01 X68.6604 Y2.4297
G01 X68.6527 Y2.4116
G01 X68.6495 Y2.4022
G01 X68.6461 Y2.3906
G01 X68.5747 Y2.1048
G01 X68.5721 Y2.0929
G01 X68.5706 Y2.0831
G01 X68.5695 Y2.0735
G01 X68.5689 Y2.0612
G00 Z2.0000
G00 X68.9689 Y1.7948
G01 F60.00
G01 Z-2.4000
G01 F120.00
G01 X68.9689 Y1.5321
G01 X69.0047 Y1.4605
G01 X69.0302 Y1.4350
G01 X69.1017 Y1.3992
G01 X69.2930 Y1.3992
G01 X69.3646 Y1.4350
G01 X69.3901 Y1.4605
G01 X69.4259 Y1.5321
G01 X69.4259 Y1.7948
G01 X69.3901 Y1.8664
G01 X69.3646 Y1.8919
G01 X69.2930 Y1.9277
G01 X69.1017 Y1.9277
G01 X69.0302 Y1.8919
G01 X69.0047 Y1.8664
G01 X68.9689 Y1.7948
G00 Z2.0000
G00 X69.9271 Y2.6771
G01 F60.00
G01 Z-2.4000
G01 F120.00
G01 X69.9293 Y2.6626
G01 X69.9338 Y2.6435
G01 X69.9421 Y2.6204
G01 X69.9484 Y2.6070
G01 X69.9583 Y2.5901
G01 X69.9698 Y2.5742
G01 X69.9828 Y2.5595
G01 X70.0009 Y2.5430
G01 X70.0128 Y2.5342
G01 X70.0295 Y2.5239
G01 X70.0471 Y2.5153
G01 X70.0655 Y2.5085
G01 X70.0893 Y2.5025
G01 X70.1088 Y2.4999
G01 X70.1259 Y2.4991
G01 X70.8225 Y2.4991
G01 X70.2992 Y1.2780
G01 X70.2917 Y1.2572
G01 X70.2869 Y1.2382
G01 X70.2840 Y1.2188
G01 X70.2831 Y1.2041
G01 X70.2836 Y1.1844
G01 X70.2869 Y1.1601
G01 X70.2917 Y1.1411
G01 X70.2965 Y1.1272
G01 X70.3044 Y1.1092
G01 X70.3168 Y1.0880
G01 X70.3254 Y1.0761
G01 X70.3382 Y1.0612
G01 X70.3562 Y1.0445
G01 X70.3679 Y1.0356
G01 X70.3845 Y1.0251
G01 X70.4020 Y1.0163
G01 X70.4250 Y1.0078
G01 X70.4441 Y1.0030
G01 X70.4586 Y1.0006
G01 X70.4782 Y0.9992
G01 X70.5027 Y1.0001
G01 X70.5221 Y1.0030
G01 X70.5412 Y1.0078
G01 X70.5551 Y1.0126
G01 X70.5730 Y1.0205
G01 X70.5901 Y1.0302
G01 X70.6062 Y1.0415
G01 X70.6210 Y1.0543
G01 X70.6346 Y1.0685
G01 X70.6466 Y1.0840
G01 X70.6571 Y1.1006
G01 X70.6670 Y1.1204
G01 X71.3117 Y2.6249
G01 X71.3174 Y2.6411
G01 X71.3221 Y2.6602
G01 X71.3250 Y2.6796
G01 X71.3260 Y2.6992
G01 X71.3250 Y2.7188
G01 X71.3226 Y2.7358
G01 X71.3181 Y2.7549
G01 X71.3126 Y2.7712
G01 X71.3098 Y2.7780
G01 X71.3035 Y2.7913
G01 X71.2949 Y2.8062
G01 X71.2909 Y2.8123
G01 X71.2806 Y2.8261
G01 X71.2708 Y2.8371
G01 X71.2656 Y2.8423
G01 X71.2509 Y2.8553
G01 X71.2371 Y2.8655
G01 X71.2245 Y2.8732
G01 X71.2181 Y2.8767
G01 X71.2025 Y2.8840
G01 X71.1887 Y2.8891
G01 X71.1817 Y2.8913
G01 X71.1649 Y2.8954
G01 X71.1480 Y2.8980
G01 X71.1259 Y2.8992
G01 X70.1259 Y2.8992
G01 X70.1088 Y2.8985
G01 X70.0893 Y2.8958
G01 X70.0702 Y2.8913
G01 X70.0517 Y2.8849
G01 X70.0338 Y2.8767
G01 X70.0169 Y2.8668
G01 X70.0009 Y2.8553
G01 X69.9862 Y2.8423
G01 X69.9729 Y2.8280
G01 X69.9610 Y2.8123
G01 X69.9484 Y2.7913
G01 X69.9402 Y2.7734
G01 X69.9338 Y2.7549
G01 X69.9293 Y2.7358
G01 X69.9266 Y2.7163
G01 X69.9259 Y2.6967
G01 X69.9271 Y2.6771
G00 Z2.0000
G00 X69.8547 Y3.9064
G01 F60.00
G01 Z-2.4000
G01 F120.00
G01 X69.8557 Y3.8914
G01 X69.8588 Y3.8720
G01 X69.8638 Y3.8530
G01 X69.8707 Y3.8346
G01 X69.8756 Y3.8240
G01 X69.9510 Y3.6737
G01 X69.9613 Y3.6570
G01 X69.9694 Y3.6460
G01 X69.9764 Y3.6377
G01 X69.9866 Y3.6271
G01 X70.0014 Y3.6141
G01 X70.0173 Y3.6026
G01 X70.0290 Y3.5956
G01 X70.1793 Y3.5202
G01 X70.1900 Y3.5153
G01 X70.1996 Y3.5115
G01 X70.2131 Y3.5071
G01 X70.2274 Y3.5035
G01 X70.2467 Y3.5004
G01 X70.2571 Y3.4995
G01 X70.2688 Y3.4991
G01 X70.4831 Y3.4991
G01 X70.4948 Y3.4995
G01 X70.5051 Y3.5004
G01 X70.5197 Y3.5025
G01 X70.5335 Y3.5056
G01 X70.5435 Y3.5085
G01 X70.5619 Y3.5153
G01 X70.5726 Y3.5202
G01 X70.5914 Y3.5296
G01 X70.6052 Y3.5216
G01 X70.6231 Y3.5134
G01 X70.6370 Y3.5085
G01 X70.6559 Y3.5035
G01 X70.6802 Y3.4999
G01 X70.6998 Y3.4992
G01 X70.7145 Y3.4999
G01 X70.7340 Y3.5025
G01 X70.7531 Y3.5071
G01 X70.7762 Y3.5153
G01 X70.7895 Y3.5216
G01 X70.8065 Y3.5315
G01 X70.8224 Y3.5430
G01 X70.8371 Y3.5560
G01 X70.8504 Y3.5704
G01 X70.8623 Y3.5860
G01 X70.8726 Y3.6027
G01 X70.8812 Y3.6204
G01 X70.8881 Y3.6388
G01 X70.8931 Y3.6577
G01 X70.8962 Y3.6771
G01 X70.8974 Y3.6992
G01 X70.8974 Y4.6992
G01 X70.8967 Y4.7163
G01 X70.8931 Y4.7406
G01 X70.8881 Y4.7596
G01 X70.8812 Y4.7780
G01 X70.8749 Y4.7913
G01 X70.8650 Y4.8083
G01 X70.8535 Y4.8242
G01 X70.8405 Y4.8389
G01 X70.8262 Y4.8522
G01 X70.8105 Y4.8641
G01 X70.7938 Y4.8744
G01 X70.7716 Y4.8849
G01 X70.7531 Y4.8913
G01 X70.7340 Y4.8958
G01 X70.7194 Y4.8980
G01 X70.6949 Y4.8992
G01 X70.6753 Y4.8980
G01 X70.6559 Y4.8949
G01 X70.6370 Y4.8899
G01 X70.6186 Y4.8830
G01 X70.6052 Y4.8767
G01 X70.5883 Y4.8668
G01 X70.5686 Y4.8522
G01 X70.5542 Y4.8389
G01 X70.5412 Y4.8242
G01 X70.5324 Y4.8123
G01 X70.5221 Y4.7956
G01 X70.5135 Y4.7780
G01 X70.5053 Y4.7549
G01 X70.5007 Y4.7358
G01 X70.4981 Y4.7163
G01 X70.4974 Y4.7016
G01 X70.4973 Y3.9300
G01 X70.4359 Y3.8992
G01 X70.3160 Y3.8992
G01 X70.2751 Y3.9197
G01 X70.2546 Y3.9607
G01 X70.2546 Y4.6992
G01 X70.2533 Y4.7212
G01 X70.2502 Y4.7406
G01 X70.2452 Y4.7596
G01 X70.2384 Y4.7780
G01 X70.2298 Y4.7956
G01 X70.2195 Y4.8123
G01 X70.2107 Y4.8242
G01 X70.1977 Y4.8389
G01 X70.1833 Y4.8522
G01 X70.1677 Y4.8641
G01 X70.1466 Y4.8767
G01 X70.1288 Y4.8849
G01 X70.1149 Y4.8899
G01 X70.0959 Y4.8949
G01 X70.0717 Y4.8985
G01 X70.0521 Y4.8992
G01 X70.0325 Y4.8980
G01 X70.0179 Y4.8958
G01 X69.9988 Y4.8913
G01 X69.9802 Y4.8849
G01 X69.9581 Y4.8744
G01 X69.9413 Y4.8641
G01 X69.9295 Y4.8553
G01 X69.9148 Y4.8423
G01 X69.8983 Y4.8242
G01 X69.8868 Y4.8083
G01 X69.8770 Y4.7913
G01 X69.8688 Y4.7734
G01 X69.8624 Y4.7549
G01 X69.8579 Y4.7358
G01 X69.8552 Y4.7163
G01 X69.8544 Y4.6992
G01 X69.8544 Y3.9135
G01 X69.8547 Y3.9064
G00 Z2.0000
G00 X69.1402 Y3.8992
G01 F60.00
G01 Z-2.4000
G01 F120.00
G01 X69.1402 Y4.4991
G01 X68.9589 Y4.4991
G01 X68.8873 Y4.4633
G01 X68.8618 Y4.4378
G01 X68.8260 Y4.3662
G01 X68.8260 Y4.0321
G01 X68.8618 Y3.9605
G01 X68.8873 Y3.9350
G01 X68.9589 Y3.8992
G01 X69.1402 Y3.8992
G00 Z2.0000
G00 X68.4259 Y4.4135
G01 F60.00
G01 Z-2.4000
G01 F120.00
G01 X68.4259 Y3.9849
G01 X68.4263 Y3.9732
G01 X68.4271 Y3.9628
G01 X68.4293 Y3.9483
G01 X68.4324 Y3.9344
G01 X68.4383 Y3.9157
G01 X68.4421 Y3.9061
G01 X68.4470 Y3.8954
G01 X68.5184 Y3.7526
G01 X68.5221 Y3.7456
G01 X68.5297 Y3.7329
G01 X68.5412 Y3.7170
G01 X68.5505 Y3.7063
G01 X68.5559 Y3.7006
G01 X68.6273 Y3.6291
G01 X68.6400 Y3.6175
G01 X68.6556 Y3.6057
G01 X68.6643 Y3.6000
G01 X68.6767 Y3.5930
G01 X68.8244 Y3.5192
G01 X68.8379 Y3.5132
G01 X68.8565 Y3.5069
G01 X68.8750 Y3.5025
G01 X68.8945 Y3.4999
G01 X68.9117 Y3.4991
G01 X69.1998 Y3.4992
G01 X69.2194 Y3.5004
G01 X69.2340 Y3.5025
G01 X69.2526 Y3.5069
G01 X69.2689 Y3.5124
G01 X69.2845 Y3.5071
G01 X69.2988 Y3.5035
G01 X69.3182 Y3.5004
G01 X69.3378 Y3.4992
G01 X69.3574 Y3.4999
G01 X69.3817 Y3.5035
G01 X69.4006 Y3.5085
G01 X69.4190 Y3.5153
G01 X69.4323 Y3.5216
G01 X69.4493 Y3.5315
G01 X69.4690 Y3.5461
G01 X69.4834 Y3.5595
G01 X69.4964 Y3.5742
G01 X69.5052 Y3.5860
G01 X69.5155 Y3.6027
G01 X69.5241 Y3.6204
G01 X69.5309 Y3.6388
G01 X69.5359 Y3.6577
G01 X69.5390 Y3.6771
G01 X69.5403 Y3.6992
G01 X69.5402 Y5.2016
G01 X69.5390 Y5.2212
G01 X69.5359 Y5.2406
G01 X69.5309 Y5.2596
G01 X69.5260 Y5.2734
G01 X69.5155 Y5.2956
G01 X69.5052 Y5.3123
G01 X69.4933 Y5.3280
G01 X69.4799 Y5.3423
G01 X69.4652 Y5.3553
G01 X69.4493 Y5.3668
G01 X69.4323 Y5.3767
G01 X69.4145 Y5.3849
G01 X69.3959 Y5.3913
G01 X69.3768 Y5.3958
G01 X69.3574 Y5.3985
G01 X69.3378 Y5.3992
G01 X69.3182 Y5.3980
G01 X69.2988 Y5.3949
G01 X69.2798 Y5.3899
G01 X69.2614 Y5.3830
G01 X69.2438 Y5.3744
G01 X69.2271 Y5.3641
G01 X69.2114 Y5.3522
G01 X69.1971 Y5.3389
G01 X69.1872 Y5.3280
G01 X69.1753 Y5.3123
G01 X69.1650 Y5.2956
G01 X69.1545 Y5.2734
G01 X69.1481 Y5.2549
G01 X69.1436 Y5.2358
G01 X69.1409 Y5.2163
G01 X69.1402 Y5.1992
G01 X69.1401 Y4.8992
G01 X68.9117 Y4.8992
G01 X68.8999 Y4.8989
G01 X68.8896 Y4.8980
G01 X68.8702 Y4.8949
G01 X68.8565 Y4.8914
G01 X68.8425 Y4.8869
G01 X68.8328 Y4.8830
G01 X68.8222 Y4.8781
G01 X68.6793 Y4.8067
G01 X68.6643 Y4.7983
G01 X68.6556 Y4.7927
G01 X68.6438 Y4.7839
G01 X68.6295 Y4.7713
G01 X68.5559 Y4.6978
G01 X68.5505 Y4.6921
G01 X68.5409 Y4.6809
G01 X68.5324 Y4.6695
G01 X68.5268 Y4.6608
G01 X68.5184 Y4.6458
G01 X68.4470 Y4.5029
G01 X68.4402 Y4.4877
G01 X68.4338 Y4.4692
G01 X68.4293 Y4.4501
G01 X68.4266 Y4.4306
G01 X68.4259 Y4.4135
G00 Z2.0000
G00 X67.5434 Y4.4438
G01 F60.00
G01 Z-2.4000
G01 F120.00
G01 X67.8006 Y4.4953
G01 X67.7930 Y4.4991
G01 X67.6017 Y4.4991
G01 X67.5608 Y4.4786
G01 X67.5434 Y4.4438
G00 Z2.0000
G00 X67.1402 Y4.4849
G01 F60.00
G01 Z-2.4000
G01 F120.00
G01 X67.1402 Y3.9135
G01 X67.1409 Y3.8968
G01 X67.1427 Y3.8822
G01 X67.1445 Y3.8720
G01 X67.1480 Y3.8583
G01 X67.1525 Y3.8443
G01 X67.1564 Y3.8346
G01 X67.1613 Y3.8240
G01 X67.2327 Y3.6811
G01 X67.2391 Y3.6694
G01 X67.2437 Y3.6620
G01 X67.2551 Y3.6460
G01 X67.2681 Y3.6313
G01 X67.2825 Y3.6179
G01 X67.2980 Y3.6060
G01 X67.3147 Y3.5956
G01 X67.4650 Y3.5202
G01 X67.4757 Y3.5153
G01 X67.4853 Y3.5115
G01 X67.4988 Y3.5071
G01 X67.5131 Y3.5035
G01 X67.5325 Y3.5004
G01 X67.5428 Y3.4995
G01 X67.5545 Y3.4991
G01 X67.8427 Y3.4992
G01 X67.8569 Y3.4998
G01 X67.8715 Y3.5016
G01 X67.8907 Y3.5056
G01 X67.9094 Y3.5115
G01 X67.9190 Y3.5153
G01 X67.9297 Y3.5202
G01 X68.0726 Y3.5916
G01 X68.0876 Y3.6000
G01 X68.1077 Y3.6141
G01 X68.1224 Y3.6271
G01 X68.1358 Y3.6414
G01 X68.1477 Y3.6570
G01 X68.1581 Y3.6737
G01 X68.1667 Y3.6913
G01 X68.1721 Y3.7050
G01 X68.1776 Y3.7239
G01 X68.1818 Y3.7480
G01 X68.1831 Y3.7676
G01 X68.1824 Y3.7872
G01 X68.1798 Y3.8067
G01 X68.1753 Y3.8258
G01 X68.1690 Y3.8444
G01 X68.1631 Y3.8579
G01 X68.1537 Y3.8751
G01 X68.1426 Y3.8913
G01 X68.1300 Y3.9063
G01 X68.1160 Y3.9201
G01 X68.0967 Y3.9352
G01 X68.0800 Y3.9456
G01 X68.0624 Y3.9542
G01 X68.0487 Y3.9596
G01 X68.0250 Y3.9662
G01 X68.0105 Y3.9687
G01 X67.9910 Y3.9705
G01 X67.9665 Y3.9699
G01 X67.9518 Y3.9682
G01 X67.9326 Y3.9642
G01 X67.9093 Y3.9565
G01 X67.8936 Y3.9496
G01 X67.7930 Y3.8992
G01 X67.6017 Y3.8992
G01 X67.5608 Y3.9197
G01 X67.5403 Y3.9607
G01 X67.5403 Y4.0351
G01 X68.0937 Y4.1458
G01 X68.1126 Y4.1506
G01 X68.1311 Y4.1572
G01 X68.1466 Y4.1645
G01 X68.1511 Y4.1669
G01 X68.1678 Y4.1772
G01 X68.1816 Y4.1875
G01 X68.1961 Y4.2007
G01 X68.2093 Y4.2152
G01 X68.2209 Y4.2309
G01 X68.2310 Y4.2479
G01 X68.2403 Y4.2679
G01 X68.2460 Y4.2840
G01 X68.2502 Y4.3006
G01 X68.2536 Y4.3224
G01 X68.2546 Y4.3420
G01 X68.2546 Y4.4849
G01 X68.2538 Y4.5020
G01 X68.2512 Y4.5215
G01 X68.2481 Y4.5353
G01 X68.2452 Y4.5453
G01 X68.2402 Y4.5592
G01 X68.2345 Y4.5721
G01 X68.1581 Y4.7247
G01 X68.1510 Y4.7364
G01 X68.1396 Y4.7523
G01 X68.1266 Y4.7671
G01 X68.1123 Y4.7805
G01 X68.0967 Y4.7924
G01 X68.0800 Y4.8027
G01 X67.9297 Y4.8781
G01 X67.9145 Y4.8849
G01 X67.9006 Y4.8899
G01 X67.8907 Y4.8927
G01 X67.8763 Y4.8959
G01 X67.8574 Y4.8985
G01 X67.8402 Y4.8992
G01 X67.5545 Y4.8992
G01 X67.5379 Y4.8985
G01 X67.5233 Y4.8967
G01 X67.5131 Y4.8949
G01 X67.4941 Y4.8899
G01 X67.4802 Y4.8849
G01 X67.4650 Y4.8781
G01 X67.3147 Y4.8027
G01 X67.3030 Y4.7957
G01 X67.2871 Y4.7842
G01 X67.2759 Y4.7747
G01 X67.2622 Y4.7606
G01 X67.2551 Y4.7523
G01 X67.2470 Y4.7413
G01 X67.2367 Y4.7247
G01 X67.1613 Y4.5744
G01 X67.1564 Y4.5637
G01 X67.1495 Y4.5453
G01 X67.1445 Y4.5263
G01 X67.1414 Y4.5069
G01 X67.1405 Y4.4966
G01 X67.1402 Y4.4849
G00 Z2.0000
G00 X66.8544 Y6.3142
G01 F60.00
G01 Z-2.4000
G01 F120.00
G01 X66.8544 Y6.9140
G01 X66.6732 Y6.9140
G01 X66.6016 Y6.8782
G01 X66.5761 Y6.8527
G01 X66.5403 Y6.7811
G01 X66.5403 Y6.4470
G01 X66.5761 Y6.3755
G01 X66.6016 Y6.3499
G01 X66.6732 Y6.3142
G01 X66.8544 Y6.3142
G00 Z2.0000
G00 X67.4973 Y6.8998
G01 F60.00
G01 Z-2.4000
G01 F120.00
G01 X67.4973 Y6.3284
G01 X67.4980 Y6.3117
G01 X67.4998 Y6.2971
G01 X67.5017 Y6.2869
G01 X67.5051 Y6.2732
G01 X67.5097 Y6.2592
G01 X67.5135 Y6.2496
G01 X67.5184 Y6.2389
G01 X67.5898 Y6.0960
G01 X67.5962 Y6.0843
G01 X67.6008 Y6.0769
G01 X67.6123 Y6.0609
G01 X67.6253 Y6.0462
G01 X67.6396 Y6.0328
G01 X67.6552 Y6.0209
G01 X67.6719 Y6.0105
G01 X67.8222 Y5.9351
G01 X67.8328 Y5.9302
G01 X67.8425 Y5.9264
G01 X67.8559 Y5.9220
G01 X67.8702 Y5.9184
G01 X67.8896 Y5.9153
G01 X67.8999 Y5.9144
G01 X67.9117 Y5.9140
G01 X68.1998 Y5.9141
G01 X68.2140 Y5.9148
G01 X68.2286 Y5.9165
G01 X68.2478 Y5.9205
G01 X68.2666 Y5.9264
G01 X68.2762 Y5.9302
G01 X68.2868 Y5.9351
G01 X68.4297 Y6.0066
G01 X68.4447 Y6.0149
G01 X68.4648 Y6.0290
G01 X68.4795 Y6.0420
G01 X68.4929 Y6.0563
G01 X68.5049 Y6.0719
G01 X68.5152 Y6.0886
G01 X68.5239 Y6.1062
G01 X68.5292 Y6.1199
G01 X68.5347 Y6.1388
G01 X68.5390 Y6.1629
G01 X68.5402 Y6.1825
G01 X68.5396 Y6.2021
G01 X68.5370 Y6.2216
G01 X68.5325 Y6.2407
G01 X68.5262 Y6.2593
G01 X68.5202 Y6.2728
G01 X68.5108 Y6.2900
G01 X68.4997 Y6.3062
G01 X68.4871 Y6.3213
G01 X68.4731 Y6.3350
G01 X68.4538 Y6.3502
G01 X68.4371 Y6.3605
G01 X68.4195 Y6.3692
G01 X68.4058 Y6.3745
G01 X68.3822 Y6.3811
G01 X68.3677 Y6.3837
G01 X68.3481 Y6.3854
G01 X68.3236 Y6.3849
G01 X68.3090 Y6.3831
G01 X68.2898 Y6.3791
G01 X68.2665 Y6.3714
G01 X68.2507 Y6.3645
G01 X68.1501 Y6.3142
G01 X67.9589 Y6.3142
G01 X67.9179 Y6.3346
G01 X67.8974 Y6.3756
G01 X67.8974 Y6.4501
G01 X68.4509 Y6.5608
G01 X68.4698 Y6.5655
G01 X68.4882 Y6.5721
G01 X68.5038 Y6.5794
G01 X68.5083 Y6.5818
G01 X68.5250 Y6.5921
G01 X68.5387 Y6.6024
G01 X68.5533 Y6.6156
G01 X68.5664 Y6.6302
G01 X68.5780 Y6.6458
G01 X68.5882 Y6.6628
G01 X68.5975 Y6.6829
G01 X68.6031 Y6.6989
G01 X68.6073 Y6.7155
G01 X68.6108 Y6.7374
G01 X68.6117 Y6.7569
G01 X68.6117 Y6.8998
G01 X68.6109 Y6.9170
G01 X68.6083 Y6.9364
G01 X68.6052 Y6.9503
G01 X68.6023 Y6.9602
G01 X68.5974 Y6.9741
G01 X68.5916 Y6.9871
G01 X68.5152 Y7.1396
G01 X68.5082 Y7.1513
G01 X68.4967 Y7.1672
G01 X68.4838 Y7.1820
G01 X68.4694 Y7.1954
G01 X68.4538 Y7.2073
G01 X68.4371 Y7.2176
G01 X68.2868 Y7.2930
G01 X68.2716 Y7.2998
G01 X68.2578 Y7.3048
G01 X68.2478 Y7.3076
G01 X68.2335 Y7.3108
G01 X68.2145 Y7.3134
G01 X68.1974 Y7.3142
G01 X67.9117 Y7.3142
G01 X67.8950 Y7.3134
G01 X67.8804 Y7.3117
G01 X67.8702 Y7.3098
G01 X67.8512 Y7.3048
G01 X67.8374 Y7.2998
G01 X67.8222 Y7.2930
G01 X67.6719 Y7.2176
G01 X67.6602 Y7.2106
G01 X67.6442 Y7.1992
G01 X67.6330 Y7.1896
G01 X67.6193 Y7.1756
G01 X67.6123 Y7.1672
G01 X67.6042 Y7.1563
G01 X67.5938 Y7.1396
G01 X67.5184 Y6.9893
G01 X67.5135 Y6.9786
G01 X67.5067 Y6.9602
G01 X67.5017 Y6.9412
G01 X67.4986 Y6.9218
G01 X67.4977 Y6.9115
G01 X67.4973 Y6.8998
G00 Z2.0000
G00 X67.9005 Y6.8588
G01 F60.00
G01 Z-2.4000
G01 F120.00
G01 X68.1578 Y6.9102
G01 X68.1501 Y6.9140
G01 X67.9589 Y6.9140
G01 X67.9179 Y6.8935
G01 X67.9005 Y6.8588
G00 Z2.0000
G00 X68.8544 Y7.1141
G01 F60.00
G01 Z-2.4000
G01 F120.00
G01 X68.8545 Y6.1116
G01 X68.8557 Y6.0920
G01 X68.8588 Y6.0727
G01 X68.8638 Y6.0537
G01 X68.8688 Y6.0398
G01 X68.8793 Y6.0176
G01 X68.8896 Y6.0009
G01 X68.9015 Y5.9853
G01 X68.9148 Y5.9709
G01 X68.9295 Y5.9579
G01 X68.9454 Y5.9464
G01 X68.9624 Y5.9365
G01 X68.9757 Y5.9302
G01 X68.9941 Y5.9234
G01 X69.0179 Y5.9174
G01 X69.0325 Y5.9153
G01 X69.0521 Y5.9141
G01 X69.0717 Y5.9148
G01 X69.0959 Y5.9184
G01 X69.1149 Y5.9234
G01 X69.1333 Y5.9302
G01 X69.1466 Y5.9365
G01 X69.1636 Y5.9464
G01 X69.1833 Y5.9610
G01 X69.1977 Y5.9744
G01 X69.2107 Y5.9891
G01 X69.2195 Y6.0009
G01 X69.2298 Y6.0176
G01 X69.2384 Y6.0353
G01 X69.2466 Y6.0584
G01 X69.2512 Y6.0775
G01 X69.2538 Y6.0969
G01 X69.2545 Y6.1116
G01 X69.2546 Y6.8833
G01 X69.3160 Y6.9140
G01 X69.4359 Y6.9140
G01 X69.4768 Y6.8935
G01 X69.4973 Y6.8526
G01 X69.4973 Y6.1141
G01 X69.4981 Y6.0969
G01 X69.5007 Y6.0775
G01 X69.5053 Y6.0584
G01 X69.5116 Y6.0398
G01 X69.5198 Y6.0220
G01 X69.5324 Y6.0009
G01 X69.5412 Y5.9891
G01 X69.5542 Y5.9744
G01 X69.5686 Y5.9610
G01 X69.5842 Y5.9491
G01 X69.6052 Y5.9365
G01 X69.6231 Y5.9284
G01 X69.6417 Y5.9220
G01 X69.6608 Y5.9174
G01 X69.6753 Y5.9153
G01 X69.6949 Y5.9141
G01 X69.7145 Y5.9148
G01 X69.7388 Y5.9184
G01 X69.7578 Y5.9234
G01 X69.7716 Y5.9284
G01 X69.7895 Y5.9365
G01 X69.8105 Y5.9491
G01 X69.8262 Y5.9610
G01 X69.8405 Y5.9744
G01 X69.8535 Y5.9891
G01 X69.8650 Y6.0050
G01 X69.8749 Y6.0220
G01 X69.8831 Y6.0398
G01 X69.8895 Y6.0584
G01 X69.8940 Y6.0775
G01 X69.8967 Y6.0969
G01 X69.8974 Y6.1141
G01 X69.8974 Y6.8998
G01 X69.8971 Y6.9115
G01 X69.8949 Y6.9311
G01 X69.8931 Y6.9412
G01 X69.8881 Y6.9602
G01 X69.8812 Y6.9786
G01 X69.8763 Y6.9893
G01 X69.8049 Y7.1321
G01 X69.7985 Y7.1438
G01 X69.7939 Y7.1513
G01 X69.7855 Y7.1634
G01 X69.7786 Y7.1719
G01 X69.7652 Y7.1862
G01 X69.7505 Y7.1992
G01 X69.7346 Y7.2106
G01 X69.7229 Y7.2176
G01 X69.5703 Y7.2941
G01 X69.5574 Y7.2998
G01 X69.5435 Y7.3048
G01 X69.5335 Y7.3076
G01 X69.5197 Y7.3107
G01 X69.5002 Y7.3134
G01 X69.4831 Y7.3142
G01 X69.2688 Y7.3142
G01 X69.2522 Y7.3134
G01 X69.2322 Y7.3107
G01 X69.2183 Y7.3076
G01 X69.2084 Y7.3048
G01 X69.1900 Y7.2979
G01 X69.1793 Y7.2930
G01 X69.1605 Y7.2836
G01 X69.1466 Y7.2916
G01 X69.1288 Y7.2998
G01 X69.1149 Y7.3048
G01 X69.0959 Y7.3098
G01 X69.0717 Y7.3134
G01 X69.0521 Y7.3141
G01 X69.0373 Y7.3134
G01 X69.0179 Y7.3107
G01 X68.9988 Y7.3062
G01 X68.9802 Y7.2998
G01 X68.9624 Y7.2916
G01 X68.9454 Y7.2818
G01 X68.9295 Y7.2703
G01 X68.9113 Y7.2538
G01 X68.8983 Y7.2391
G01 X68.8868 Y7.2232
G01 X68.8770 Y7.2062
G01 X68.8688 Y7.1884
G01 X68.8624 Y7.1698
G01 X68.8579 Y7.1507
G01 X68.8552 Y7.1313
G01 X68.8544 Y7.1141
G00 Z2.0000
G00 X71.2830 Y6.9712
G01 F60.00
G01 Z-2.4000
G01 F120.00
G01 X71.2830 Y6.7569
G01 X71.2838 Y6.7398
G01 X71.2856 Y6.7253
G01 X71.2890 Y6.7084
G01 X71.3604 Y6.4227
G01 X71.3653 Y6.4062
G01 X71.3686 Y6.3975
G01 X71.3756 Y6.3818
G01 X71.4470 Y6.2389
G01 X71.4554 Y6.2239
G01 X71.4664 Y6.2077
G01 X71.4729 Y6.1996
G01 X71.4845 Y6.1869
G01 X71.6273 Y6.0440
G01 X71.6359 Y6.0360
G01 X71.6438 Y6.0293
G01 X71.6597 Y6.0178
G01 X71.6719 Y6.0105
G01 X71.6850 Y6.0039
G01 X71.6945 Y5.9998
G01 X71.7055 Y5.9957
G01 X71.9198 Y5.9243
G01 X71.9274 Y5.9220
G01 X71.9417 Y5.9184
G01 X71.9610 Y5.9153
G01 X71.9752 Y5.9142
G01 X71.9831 Y5.9140
G01 X72.1259 Y5.9140
G01 X72.1431 Y5.9148
G01 X72.1534 Y5.9160
G01 X72.1727 Y5.9196
G01 X72.1892 Y5.9243
G01 X72.4035 Y5.9957
G01 X72.4195 Y6.0019
G01 X72.4367 Y6.0103
G01 X72.4493 Y6.0178
G01 X72.4578 Y6.0237
G01 X72.4694 Y6.0328
G01 X72.4817 Y6.0440
G01 X72.5548 Y6.1172
G01 X72.5678 Y6.1320
G01 X72.5793 Y6.1479
G01 X72.5892 Y6.1648
G01 X72.5955 Y6.1781
G01 X72.6023 Y6.1965
G01 X72.6073 Y6.2155
G01 X72.6109 Y6.2398
G01 X72.6117 Y6.2594
G01 X72.6105 Y6.2790
G01 X72.6083 Y6.2936
G01 X72.6038 Y6.3127
G01 X72.5974 Y6.3312
G01 X72.5892 Y6.3491
G01 X72.5793 Y6.3660
G01 X72.5678 Y6.3819
G01 X72.5513 Y6.4001
G01 X72.5366 Y6.4131
G01 X72.5248 Y6.4219
G01 X72.5081 Y6.4322
G01 X72.4859 Y6.4427
G01 X72.4674 Y6.4491
G01 X72.4483 Y6.4536
G01 X72.4337 Y6.4558
G01 X72.4092 Y6.4570
G01 X72.3896 Y6.4558
G01 X72.3702 Y6.4526
G01 X72.3512 Y6.4476
G01 X72.3374 Y6.4427
G01 X72.3152 Y6.4322
G01 X72.2985 Y6.4219
G01 X72.2867 Y6.4131
G01 X72.2702 Y6.3984
G01 X72.2321 Y6.3604
G01 X72.0935 Y6.3142
G01 X72.0155 Y6.3142
G01 X71.8769 Y6.3604
G01 X71.7904 Y6.4469
G01 X71.7433 Y6.5411
G01 X71.6832 Y6.7816
G01 X71.6832 Y6.9466
G01 X71.7433 Y7.1871
G01 X71.7904 Y7.2813
G01 X71.8769 Y7.3678
G01 X72.0155 Y7.4140
G01 X72.0935 Y7.4140
G01 X72.2321 Y7.3678
G01 X72.2702 Y7.3298
G01 X72.2867 Y7.3151
G01 X72.3026 Y7.3036
G01 X72.3195 Y7.2937
G01 X72.3328 Y7.2874
G01 X72.3512 Y7.2805
G01 X72.3702 Y7.2755
G01 X72.3896 Y7.2724
G01 X72.4092 Y7.2712
G01 X72.4288 Y7.2719
G01 X72.4531 Y7.2755
G01 X72.4721 Y7.2805
G01 X72.4905 Y7.2874
G01 X72.5081 Y7.2960
G01 X72.5248 Y7.3063
G01 X72.5366 Y7.3151
G01 X72.5513 Y7.3281
G01 X72.5647 Y7.3424
G01 X72.5766 Y7.3581
G01 X72.5892 Y7.3791
G01 X72.5974 Y7.3970
G01 X72.6023 Y7.4108
G01 X72.6073 Y7.4298
G01 X72.6109 Y7.4541
G01 X72.6117 Y7.4737
G01 X72.6105 Y7.4933
G01 X72.6083 Y7.5078
G01 X72.6023 Y7.5316
G01 X72.5955 Y7.5500
G01 X72.5869 Y7.5677
G01 X72.5766 Y7.5844
G01 X72.5647 Y7.6000
G01 X72.5531 Y7.6127
G01 X72.4817 Y7.6841
G01 X72.4731 Y7.6922
G01 X72.4652 Y7.6988
G01 X72.4493 Y7.7103
G01 X72.4367 Y7.7179
G01 X72.4240 Y7.7243
G01 X72.4145 Y7.7284
G01 X72.4035 Y7.7325
G01 X72.1892 Y7.8039
G01 X72.1817 Y7.8062
G01 X72.1679 Y7.8097
G01 X72.1485 Y7.8128
G01 X72.1289 Y7.8141
G01 X71.9831 Y7.8142
G01 X71.9659 Y7.8134
G01 X71.9556 Y7.8122
G01 X71.9363 Y7.8086
G01 X71.9198 Y7.8039
G01 X71.7055 Y7.7325
G01 X71.6945 Y7.7284
G01 X71.6850 Y7.7243
G01 X71.6723 Y7.7179
G01 X71.6597 Y7.7103
G01 X71.6438 Y7.6988
G01 X71.6359 Y7.6922
G01 X71.6273 Y7.6841
G01 X71.4845 Y7.5413
G01 X71.4729 Y7.5286
G01 X71.4610 Y7.5130
G01 X71.4554 Y7.5043
G01 X71.4470 Y7.4893
G01 X71.3756 Y7.3464
G01 X71.3686 Y7.3307
G01 X71.3653 Y7.3219
G01 X71.3604 Y7.3055
G01 X71.2890 Y7.0198
G01 X71.2864 Y7.0078
G01 X71.2849 Y6.9981
G01 X71.2834 Y6.9834
G01 X71.2830 Y6.9712
G00 Z2.0000
G00 X72.7830 Y6.8284
G01 F60.00
G01 Z-2.4000
G01 F120.00
G01 X72.7830 Y6.3998
G01 X72.7837 Y6.3832
G01 X72.7855 Y6.3686
G01 X72.7874 Y6.3584
G01 X72.7910 Y6.3441
G01 X72.7972 Y6.3260
G01 X72.8041 Y6.3103
G01 X72.8756 Y6.1675
G01 X72.8839 Y6.1525
G01 X72.8896 Y6.1438
G01 X72.8983 Y6.1320
G01 X72.9110 Y6.1176
G01 X72.9845 Y6.0440
G01 X72.9902 Y6.0386
G01 X73.0014 Y6.0290
G01 X73.0128 Y6.0206
G01 X73.0215 Y6.0149
G01 X73.0365 Y6.0066
G01 X73.1815 Y5.9341
G01 X73.1996 Y5.9264
G01 X73.2131 Y5.9220
G01 X73.2274 Y5.9184
G01 X73.2467 Y5.9153
G01 X73.2571 Y5.9144
G01 X73.2688 Y5.9140
G01 X73.4831 Y5.9140
G01 X73.4997 Y5.9148
G01 X73.5143 Y5.9165
G01 X73.5335 Y5.9205
G01 X73.5435 Y5.9234
G01 X73.5574 Y5.9284
G01 X73.5703 Y5.9341
G01 X73.7154 Y6.0066
G01 X73.7224 Y6.0103
G01 X73.7350 Y6.0178
G01 X73.7505 Y6.0290
G01 X73.7617 Y6.0386
G01 X73.8388 Y6.1155
G01 X73.8443 Y6.1212
G01 X73.8539 Y6.1324
G01 X73.8623 Y6.1438
G01 X73.8679 Y6.1525
G01 X73.8763 Y6.1675
G01 X73.9477 Y6.3103
G01 X73.9526 Y6.3210
G01 X73.9565 Y6.3306
G01 X73.9609 Y6.3441
G01 X73.9645 Y6.3584
G01 X73.9664 Y6.3686
G01 X73.9681 Y6.3832
G01 X73.9689 Y6.3998
G01 X73.9689 Y6.8284
G01 X73.9685 Y6.8401
G01 X73.9676 Y6.8504
G01 X73.9654 Y6.8650
G01 X73.9624 Y6.8788
G01 X73.9565 Y6.8976
G01 X73.9526 Y6.9072
G01 X73.9477 Y6.9178
G01 X73.8763 Y7.0607
G01 X73.8726 Y7.0677
G01 X73.8650 Y7.0803
G01 X73.8539 Y7.0958
G01 X73.8443 Y7.1070
G01 X73.7674 Y7.1841
G01 X73.7617 Y7.1896
G01 X73.7505 Y7.1992
G01 X73.7391 Y7.2076
G01 X73.7304 Y7.2132
G01 X73.7154 Y7.2216
G01 X73.5726 Y7.2930
G01 X73.5619 Y7.2979
G01 X73.5523 Y7.3018
G01 X73.5388 Y7.3062
G01 X73.5245 Y7.3098
G01 X73.5143 Y7.3117
G01 X73.4997 Y7.3134
G01 X73.4831 Y7.3142
G01 X73.2688 Y7.3142
G01 X73.2571 Y7.3138
G01 X73.2375 Y7.3117
G01 X73.2274 Y7.3098
G01 X73.2131 Y7.3062
G01 X73.1945 Y7.2998
G01 X73.1793 Y7.2930
G01 X73.0365 Y7.2216
G01 X73.0215 Y7.2132
G01 X73.0128 Y7.2076
G01 X72.9972 Y7.1957
G01 X72.9845 Y7.1841
G01 X72.9130 Y7.1127
G01 X72.9015 Y7.1000
G01 X72.8896 Y7.0844
G01 X72.8839 Y7.0757
G01 X72.8770 Y7.0634
G01 X72.8041 Y6.9178
G01 X72.7992 Y6.9072
G01 X72.7924 Y6.8888
G01 X72.7874 Y6.8698
G01 X72.7843 Y6.8504
G01 X72.7834 Y6.8401
G01 X72.7830 Y6.8284
G00 Z2.0000
G00 X73.4359 Y6.3142
G01 F60.00
G01 Z-2.4000
G01 F120.00
G01 X73.5074 Y6.3499
G01 X73.5329 Y6.3755
G01 X73.5687 Y6.4470
G01 X73.5687 Y6.7811
G01 X73.5329 Y6.8527
G01 X73.5074 Y6.8782
G01 X73.4359 Y6.9140
G01 X73.3160 Y6.9140
G01 X73.2445 Y6.8782
G01 X73.2189 Y6.8527
G01 X73.1832 Y6.7811
G01 X73.1832 Y6.4470
G01 X73.2189 Y6.3755
G01 X73.2445 Y6.3499
G01 X73.3160 Y6.3142
G01 X73.4359 Y6.3142
G00 Z2.0000
G00 X74.2128 Y5.5920
G01 F60.00
G01 Z-2.4000
G01 F120.00
G01 X74.2160 Y5.5727
G01 X74.2210 Y5.5537
G01 X74.2259 Y5.5398
G01 X74.2341 Y5.5220
G01 X74.2467 Y5.5009
G01 X74.2555 Y5.4891
G01 X74.2685 Y5.4744
G01 X74.2829 Y5.4610
G01 X74.2985 Y5.4491
G01 X74.3195 Y5.4365
G01 X74.3374 Y5.4284
G01 X74.3512 Y5.4234
G01 X74.3702 Y5.4184
G01 X74.3945 Y5.4148
G01 X74.4141 Y5.4141
G01 X74.4337 Y5.4153
G01 X74.4483 Y5.4174
G01 X74.4674 Y5.4220
G01 X74.4905 Y5.4302
G01 X74.5038 Y5.4365
G01 X74.5207 Y5.4464
G01 X74.5404 Y5.4610
G01 X74.5548 Y5.4744
G01 X74.5678 Y5.4891
G01 X74.5793 Y5.5050
G01 X74.5892 Y5.5220
G01 X74.5974 Y5.5398
G01 X74.6038 Y5.5584
G01 X74.6083 Y5.5775
G01 X74.6109 Y5.5969
G01 X74.6117 Y5.6141
G01 X74.6117 Y5.9140
G01 X74.8402 Y5.9140
G01 X74.8520 Y5.9144
G01 X74.8623 Y5.9153
G01 X74.8817 Y5.9184
G01 X74.9006 Y5.9234
G01 X74.9145 Y5.9284
G01 X74.9275 Y5.9341
G01 X75.0726 Y6.0066
G01 X75.0876 Y6.0149
G01 X75.0962 Y6.0206
G01 X75.1077 Y6.0290
G01 X75.1188 Y6.0386
G01 X75.1246 Y6.0440
G01 X75.1960 Y6.1155
G01 X75.2076 Y6.1282
G01 X75.2140 Y6.1363
G01 X75.2251 Y6.1525
G01 X75.2335 Y6.1675
G01 X75.3049 Y6.3103
G01 X75.3117 Y6.3255
G01 X75.3181 Y6.3441
G01 X75.3226 Y6.3632
G01 X75.3252 Y6.3826
G01 X75.3260 Y6.3998
G01 X75.3260 Y6.8308
G01 X75.3248 Y6.8504
G01 X75.3226 Y6.8650
G01 X75.3181 Y6.8841
G01 X75.3117 Y6.9026
G01 X75.3049 Y6.9178
G01 X75.2298 Y7.0677
G01 X75.2222 Y7.0803
G01 X75.2140 Y7.0919
G01 X75.2076 Y7.1000
G01 X75.1960 Y7.1127
G01 X75.1188 Y7.1896
G01 X75.1077 Y7.1992
G01 X75.0922 Y7.2103
G01 X75.0795 Y7.2179
G01 X75.0726 Y7.2216
G01 X74.9297 Y7.2930
G01 X74.9145 Y7.2998
G01 X74.8959 Y7.3062
G01 X74.8768 Y7.3107
G01 X74.8574 Y7.3134
G01 X74.8402 Y7.3142
G01 X74.5545 Y7.3142
G01 X74.5428 Y7.3138
G01 X74.5233 Y7.3117
G01 X74.5131 Y7.3098
G01 X74.4988 Y7.3062
G01 X74.4830 Y7.3009
G01 X74.4674 Y7.3062
G01 X74.4531 Y7.3098
G01 X74.4288 Y7.3134
G01 X74.4092 Y7.3141
G01 X74.3896 Y7.3129
G01 X74.3750 Y7.3107
G01 X74.3559 Y7.3062
G01 X74.3328 Y7.2979
G01 X74.3195 Y7.2916
G01 X74.3026 Y7.2818
G01 X74.2829 Y7.2671
G01 X74.2685 Y7.2538
G01 X74.2555 Y7.2391
G01 X74.2467 Y7.2273
G01 X74.2341 Y7.2062
G01 X74.2259 Y7.1884
G01 X74.2195 Y7.1698
G01 X74.2150 Y7.1507
G01 X74.2124 Y7.1313
G01 X74.2116 Y7.1141
G01 X74.2116 Y5.6141
G01 X74.2128 Y5.5920
G00 Z2.0000
G00 X74.6117 Y6.9140
G01 F60.00
G01 Z-2.4000
G01 F120.00
G01 X74.6117 Y6.3142
G01 X74.7930 Y6.3142
G01 X74.8646 Y6.3499
G01 X74.8901 Y6.3755
G01 X74.9259 Y6.4470
G01 X74.9259 Y6.7811
G01 X74.8901 Y6.8527
G01 X74.8646 Y6.8782
G01 X74.7930 Y6.9140
G01 X74.6117 Y6.9140
G00 Z2.0000
G00 X75.4973 Y6.8998
G01 F60.00
G01 Z-2.4000
G01 F120.00
G01 X75.4973 Y6.3284
G01 X75.4980 Y6.3117
G01 X75.4998 Y6.2971
G01 X75.5017 Y6.2869
G01 X75.5051 Y6.2732
G01 X75.5097 Y6.2592
G01 X75.5135 Y6.2496
G01 X75.5184 Y6.2389
G01 X75.5898 Y6.0960
G01 X75.5962 Y6.0843
G01 X75.6008 Y6.0769
G01 X75.6123 Y6.0609
G01 X75.6253 Y6.0462
G01 X75.6396 Y6.0328
G01 X75.6552 Y6.0209
G01 X75.6719 Y6.0105
G01 X75.8222 Y5.9351
G01 X75.8328 Y5.9302
G01 X75.8425 Y5.9264
G01 X75.8559 Y5.9220
G01 X75.8702 Y5.9184
G01 X75.8896 Y5.9153
G01 X75.8999 Y5.9144
G01 X75.9117 Y5.9140
G01 X76.1998 Y5.9141
G01 X76.2140 Y5.9148
G01 X76.2286 Y5.9165
G01 X76.2478 Y5.9205
G01 X76.2666 Y5.9264
G01 X76.2762 Y5.9302
G01 X76.2868 Y5.9351
G01 X76.4297 Y6.0066
G01 X76.4447 Y6.0149
G01 X76.4648 Y6.0290
G01 X76.4795 Y6.0420
G01 X76.4929 Y6.0563
G01 X76.5049 Y6.0719
G01 X76.5152 Y6.0886
G01 X76.5239 Y6.1062
G01 X76.5292 Y6.1199
G01 X76.5347 Y6.1388
G01 X76.5390 Y6.1629
G01 X76.5402 Y6.1825
G01 X76.5396 Y6.2021
G01 X76.5370 Y6.2216
G01 X76.5325 Y6.2407
G01 X76.5262 Y6.2593
G01 X76.5202 Y6.2728
G01 X76.5108 Y6.2900
G01 X76.4997 Y6.3062
G01 X76.4871 Y6.3213
G01 X76.4731 Y6.3350
G01 X76.4538 Y6.3502
G01 X76.4371 Y6.3605
G01 X76.4195 Y6.3692
G01 X76.4058 Y6.3745
G01 X76.3822 Y6.3811
G01 X76.3677 Y6.3837
G01 X76.3481 Y6.3854
G01 X76.3236 Y6.3849
G01 X76.3090 Y6.3831
G01 X76.2898 Y6.3791
G01 X76.2665 Y6.3714
G01 X76.2507 Y6.3645
G01 X76.1501 Y6.3142
G01 X75.9589 Y6.3142
G01 X75.9179 Y6.3346
G01 X75.8974 Y6.3756
G01 X75.8974 Y6.4501
G01 X76.4509 Y6.5608
G01 X76.4698 Y6.5655
G01 X76.4882 Y6.5721
G01 X76.5038 Y6.5794
G01 X76.5083 Y6.5818
G01 X76.5250 Y6.5921
G01 X76.5387 Y6.6024
G01 X76.5533 Y6.6156
G01 X76.5664 Y6.6302
G01 X76.5780 Y6.6458
G01 X76.5882 Y6.6628
G01 X76.5975 Y6.6829
G01 X76.6031 Y6.6989
G01 X76.6073 Y6.7155
G01 X76.6108 Y6.7374
G01 X76.6117 Y6.7569
G01 X76.6117 Y6.8998
G01 X76.6109 Y6.9170
G01 X76.6083 Y6.9364
G01 X76.6052 Y6.9503
G01 X76.6023 Y6.9602
G01 X76.5974 Y6.9741
G01 X76.5916 Y6.9871
G01 X76.5152 Y7.1396
G01 X76.5082 Y7.1513
G01 X76.4967 Y7.1672
G01 X76.4838 Y7.1820
G01 X76.4694 Y7.1954
G01 X76.4538 Y7.2073
G01 X76.4371 Y7.2176
G01 X76.2868 Y7.2930
G01 X76.2716 Y7.2998
G01 X76.2578 Y7.3048
G01 X76.2478 Y7.3076
G01 X76.2335 Y7.3108
G01 X76.2145 Y7.3134
G01 X76.1974 Y7.3142
G01 X75.9117 Y7.3142
G01 X75.8950 Y7.3134
G01 X75.8804 Y7.3117
G01 X75.8702 Y7.3098
G01 X75.8512 Y7.3048
G01 X75.8374 Y7.2998
G01 X75.8222 Y7.2930
G01 X75.6719 Y7.2176
G01 X75.6602 Y7.2106
G01 X75.6442 Y7.1992
G01 X75.6330 Y7.1896
G01 X75.6193 Y7.1756
G01 X75.6123 Y7.1672
G01 X75.6042 Y7.1563
G01 X75.5938 Y7.1396
G01 X75.5184 Y6.9893
G01 X75.5135 Y6.9786
G01 X75.5067 Y6.9602
G01 X75.5017 Y6.9412
G01 X75.4986 Y6.9218
G01 X75.4977 Y6.9115
G01 X75.4973 Y6.8998
G00 Z2.0000
G00 X75.9005 Y6.8588
G01 F60.00
G01 Z-2.4000
G01 F120.00
G01 X76.1578 Y6.9102
G01 X76.1501 Y6.9140
G01 X75.9589 Y6.9140
G01 X75.9179 Y6.8935
G01 X75.9005 Y6.8588
G00 Z2.0000
G00 X76.8544 Y7.6141
G01 F60.00
G01 Z-2.4000
G01 F120.00
G01 X76.8544 Y6.3284
G01 X76.8548 Y6.3166
G01 X76.8557 Y6.3063
G01 X76.8578 Y6.2923
G01 X76.8610 Y6.2779
G01 X76.8668 Y6.2592
G01 X76.8707 Y6.2496
G01 X76.8756 Y6.2389
G01 X76.9510 Y6.0886
G01 X76.9613 Y6.0719
G01 X76.9732 Y6.0563
G01 X76.9866 Y6.0420
G01 X77.0014 Y6.0290
G01 X77.0173 Y6.0176
G01 X77.0248 Y6.0130
G01 X77.0365 Y6.0066
G01 X77.1793 Y5.9351
G01 X77.1996 Y5.9264
G01 X77.2183 Y5.9205
G01 X77.2327 Y5.9173
G01 X77.2571 Y5.9144
G01 X77.2718 Y5.9141
G01 X77.2914 Y5.9153
G01 X77.3155 Y5.9196
G01 X77.3344 Y5.9251
G01 X77.3526 Y5.9325
G01 X77.3700 Y5.9415
G01 X77.3824 Y5.9495
G01 X77.3980 Y5.9614
G01 X77.4123 Y5.9748
G01 X77.4283 Y5.9934
G01 X77.4368 Y6.0055
G01 X77.4466 Y6.0224
G01 X77.4547 Y6.0403
G01 X77.4611 Y6.0589
G01 X77.4655 Y6.0780
G01 X77.4681 Y6.0975
G01 X77.4687 Y6.1220
G01 X77.4669 Y6.1415
G01 X77.4633 Y6.1608
G01 X77.4578 Y6.1797
G01 X77.4524 Y6.1934
G01 X77.4413 Y6.2153
G01 X77.4334 Y6.2277
G01 X77.4215 Y6.2433
G01 X77.4045 Y6.2610
G01 X77.3895 Y6.2736
G01 X77.3733 Y6.2847
G01 X77.3583 Y6.2930
G01 X77.2751 Y6.3346
G01 X77.2546 Y6.3756
G01 X77.2546 Y7.6141
G01 X77.2533 Y7.6361
G01 X77.2512 Y7.6507
G01 X77.2466 Y7.6698
G01 X77.2384 Y7.6929
G01 X77.2298 Y7.7105
G01 X77.2195 Y7.7273
G01 X77.2076 Y7.7429
G01 X77.1942 Y7.7573
G01 X77.1795 Y7.7703
G01 X77.1677 Y7.7790
G01 X77.1510 Y7.7893
G01 X77.1333 Y7.7979
G01 X77.1149 Y7.8048
G01 X77.0959 Y7.8098
G01 X77.0766 Y7.8129
G01 X77.0570 Y7.8141
G01 X77.0325 Y7.8129
G01 X77.0131 Y7.8098
G01 X76.9941 Y7.8048
G01 X76.9802 Y7.7998
G01 X76.9624 Y7.7916
G01 X76.9454 Y7.7818
G01 X76.9295 Y7.7703
G01 X76.9148 Y7.7573
G01 X76.9015 Y7.7429
G01 X76.8896 Y7.7273
G01 X76.8793 Y7.7105
G01 X76.8688 Y7.6884
G01 X76.8624 Y7.6698
G01 X76.8579 Y7.6507
G01 X76.8552 Y7.6313
G01 X76.8544 Y7.6141
G00 Z2.0000
G00 X77.9728 Y6.8852
G01 F60.00
G01 Z-2.4000
G01 F120.00
G01 X77.9831 Y6.8856
G01 X78.2665 Y6.8856
G01 X78.2625 Y6.8935
G01 X78.2216 Y6.9140
G01 X78.0303 Y6.9140
G01 X77.9728 Y6.8852
G00 Z2.0000
G00 X77.9894 Y6.3346
G01 F60.00
G01 Z-2.4000
G01 F120.00
G01 X78.0303 Y6.3142
G01 X78.2830 Y6.3142
G01 X78.2830 Y6.4854
G01 X78.0303 Y6.4854
G01 X77.9894 Y6.4650
G01 X77.9689 Y6.4240
G01 X77.9689 Y6.3756
G01 X77.9894 Y6.3346
G00 Z2.0000
G00 X77.5687 Y6.4712
G01 F60.00
G01 Z-2.4000
G01 F120.00
G01 X77.5687 Y6.3284
G01 X77.5691 Y6.3166
G01 X77.5712 Y6.2971
G01 X77.5731 Y6.2869
G01 X77.5767 Y6.2727
G01 X77.5829 Y6.2546
G01 X77.5898 Y6.2389
G01 X77.6613 Y6.0960
G01 X77.6677 Y6.0843
G01 X77.6756 Y6.0719
G01 X77.6837 Y6.0609
G01 X77.6907 Y6.0526
G01 X77.7009 Y6.0420
G01 X77.7073 Y6.0360
G01 X77.7157 Y6.0290
G01 X77.7266 Y6.0209
G01 X77.7390 Y6.0130
G01 X77.7507 Y6.0066
G01 X77.8936 Y5.9351
G01 X77.9043 Y5.9302
G01 X77.9227 Y5.9234
G01 X77.9417 Y5.9184
G01 X77.9518 Y5.9165
G01 X77.9714 Y5.9144
G01 X77.9831 Y5.9140
G01 X78.3427 Y5.9141
G01 X78.3623 Y5.9153
G01 X78.3768 Y5.9174
G01 X78.3954 Y5.9218
G01 X78.4118 Y5.9273
G01 X78.4274 Y5.9220
G01 X78.4417 Y5.9184
G01 X78.4610 Y5.9153
G01 X78.4806 Y5.9141
G01 X78.5002 Y5.9148
G01 X78.5245 Y5.9184
G01 X78.5435 Y5.9234
G01 X78.5574 Y5.9284
G01 X78.5752 Y5.9365
G01 X78.5962 Y5.9491
G01 X78.6119 Y5.9610
G01 X78.6262 Y5.9744
G01 X78.6393 Y5.9891
G01 X78.6480 Y6.0009
G01 X78.6583 Y6.0176
G01 X78.6669 Y6.0353
G01 X78.6738 Y6.0537
G01 X78.6788 Y6.0727
G01 X78.6824 Y6.0969
G01 X78.6832 Y6.1141
G01 X78.6832 Y6.8998
G01 X78.6828 Y6.9115
G01 X78.6819 Y6.9218
G01 X78.6788 Y6.9412
G01 X78.6738 Y6.9602
G01 X78.6669 Y6.9786
G01 X78.6620 Y6.9893
G01 X78.5906 Y7.1321
G01 X78.5842 Y7.1438
G01 X78.5763 Y7.1563
G01 X78.5682 Y7.1672
G01 X78.5611 Y7.1756
G01 X78.5510 Y7.1862
G01 X78.5446 Y7.1922
G01 X78.5362 Y7.1992
G01 X78.5253 Y7.2073
G01 X78.5161 Y7.2132
G01 X78.5033 Y7.2205
G01 X78.3583 Y7.2930
G01 X78.3476 Y7.2979
G01 X78.3292 Y7.3048
G01 X78.3102 Y7.3098
G01 X78.3000 Y7.3117
G01 X78.2805 Y7.3138
G01 X78.2688 Y7.3142
G01 X77.9831 Y7.3142
G01 X77.9659 Y7.3134
G01 X77.9465 Y7.3107
G01 X77.9326 Y7.3076
G01 X77.9227 Y7.3048
G01 X77.9088 Y7.2998
G01 X77.8958 Y7.2941
G01 X77.7507 Y7.2216
G01 X77.7316 Y7.2106
G01 X77.7195 Y7.2022
G01 X77.7045 Y7.1896
G01 X77.6875 Y7.1719
G01 X77.6756 Y7.1563
G01 X77.6677 Y7.1438
G01 X77.6586 Y7.1264
G01 X77.6512 Y7.1082
G01 X77.6457 Y7.0894
G01 X77.6421 Y7.0701
G01 X77.6402 Y7.0457
G01 X77.6409 Y7.0260
G01 X77.6427 Y7.0114
G01 X77.6480 Y6.9875
G01 X77.6543 Y6.9689
G01 X77.6624 Y6.9510
G01 X77.6723 Y6.9340
G01 X77.6807 Y6.9220
G01 X77.6967 Y6.9033
G01 X77.7073 Y6.8932
G01 X77.7226 Y6.8809
G01 X77.7433 Y6.8677
G01 X77.7609 Y6.8590
G01 X77.7793 Y6.8521
G01 X77.7983 Y6.8471
G01 X77.8128 Y6.8445
G01 X77.8323 Y6.8428
G01 X77.8506 Y6.8429
G01 X77.7507 Y6.7930
G01 X77.7390 Y6.7866
G01 X77.7316 Y6.7821
G01 X77.7195 Y6.7736
G01 X77.7045 Y6.7610
G01 X77.6933 Y6.7498
G01 X77.6807 Y6.7348
G01 X77.6696 Y6.7186
G01 X77.6613 Y6.7036
G01 X77.5898 Y6.5607
G01 X77.5849 Y6.5500
G01 X77.5781 Y6.5316
G01 X77.5731 Y6.5127
G01 X77.5700 Y6.4933
G01 X77.5691 Y6.4830
G01 X77.5687 Y6.4712
G00 Z2.0000
G00 X78.9973 Y7.1141
G01 F60.00
G01 Z-2.4000
G01 F120.00
G01 X78.9974 Y6.1116
G01 X78.9986 Y6.0920
G01 X79.0017 Y6.0727
G01 X79.0067 Y6.0537
G01 X79.0116 Y6.0398
G01 X79.0221 Y6.0176
G01 X79.0324 Y6.0009
G01 X79.0443 Y5.9853
G01 X79.0577 Y5.9709
G01 X79.0724 Y5.9579
G01 X79.0883 Y5.9464
G01 X79.1052 Y5.9365
G01 X79.1186 Y5.9302
G01 X79.1370 Y5.9234
G01 X79.1608 Y5.9174
G01 X79.1753 Y5.9153
G01 X79.1949 Y5.9141
G01 X79.2145 Y5.9148
G01 X79.2388 Y5.9184
G01 X79.2578 Y5.9234
G01 X79.2762 Y5.9302
G01 X79.2895 Y5.9365
G01 X79.3064 Y5.9464
G01 X79.3262 Y5.9610
G01 X79.3405 Y5.9744
G01 X79.3535 Y5.9891
G01 X79.3623 Y6.0009
G01 X79.3726 Y6.0176
G01 X79.3812 Y6.0353
G01 X79.3895 Y6.0584
G01 X79.3940 Y6.0775
G01 X79.3967 Y6.0969
G01 X79.3974 Y6.1116
G01 X79.3974 Y6.8833
G01 X79.4589 Y6.9140
G01 X79.5787 Y6.9140
G01 X79.6197 Y6.8935
G01 X79.6402 Y6.8526
G01 X79.6402 Y6.1141
G01 X79.6409 Y6.0969
G01 X79.6436 Y6.0775
G01 X79.6481 Y6.0584
G01 X79.6545 Y6.0398
G01 X79.6627 Y6.0220
G01 X79.6753 Y6.0009
G01 X79.6841 Y5.9891
G01 X79.6971 Y5.9744
G01 X79.7114 Y5.9610
G01 X79.7271 Y5.9491
G01 X79.7481 Y5.9365
G01 X79.7659 Y5.9284
G01 X79.7845 Y5.9220
G01 X79.8036 Y5.9174
G01 X79.8182 Y5.9153
G01 X79.8378 Y5.9141
G01 X79.8574 Y5.9148
G01 X79.8817 Y5.9184
G01 X79.9006 Y5.9234
G01 X79.9145 Y5.9284
G01 X79.9323 Y5.9365
G01 X79.9493 Y5.9464
G01 X79.9690 Y5.9610
G01 X79.9834 Y5.9744
G01 X79.9964 Y5.9891
G01 X80.0079 Y6.0050
G01 X80.0178 Y6.0220
G01 X80.0260 Y6.0398
G01 X80.0323 Y6.0584
G01 X80.0369 Y6.0775
G01 X80.0395 Y6.0969
G01 X80.0403 Y6.1141
G01 X80.0403 Y6.8998
G01 X80.0399 Y6.9115
G01 X80.0378 Y6.9311
G01 X80.0359 Y6.9412
G01 X80.0309 Y6.9602
G01 X80.0241 Y6.9786
G01 X80.0192 Y6.9893
G01 X79.9477 Y7.1321
G01 X79.9413 Y7.1438
G01 X79.9368 Y7.1513
G01 X79.9283 Y7.1634
G01 X79.9215 Y7.1719
G01 X79.9081 Y7.1862
G01 X79.8934 Y7.1992
G01 X79.8774 Y7.2106
G01 X79.8657 Y7.2176
G01 X79.7132 Y7.2941
G01 X79.7002 Y7.2998
G01 X79.6863 Y7.3048
G01 X79.6764 Y7.3076
G01 X79.6626 Y7.3107
G01 X79.6431 Y7.3134
G01 X79.6259 Y7.3142
G01 X79.4117 Y7.3142
G01 X79.3950 Y7.3134
G01 X79.3750 Y7.3107
G01 X79.3612 Y7.3076
G01 X79.3512 Y7.3048
G01 X79.3328 Y7.2979
G01 X79.3222 Y7.2930
G01 X79.3033 Y7.2836
G01 X79.2895 Y7.2916
G01 X79.2716 Y7.2998
G01 X79.2578 Y7.3048
G01 X79.2388 Y7.3098
G01 X79.2145 Y7.3134
G01 X79.1949 Y7.3141
G01 X79.1802 Y7.3134
G01 X79.1608 Y7.3107
G01 X79.1417 Y7.3062
G01 X79.1231 Y7.2998
G01 X79.1052 Y7.2916
G01 X79.0883 Y7.2818
G01 X79.0724 Y7.2703
G01 X79.0542 Y7.2538
G01 X79.0412 Y7.2391
G01 X79.0297 Y7.2232
G01 X79.0198 Y7.2062
G01 X79.0116 Y7.1884
G01 X79.0053 Y7.1698
G01 X79.0007 Y7.1507
G01 X78.9981 Y7.1313
G01 X78.9973 Y7.1141
G00 Z2.0000
G00 X80.2830 Y6.8284
G01 F60.00
G01 Z-2.4000
G01 F120.00
G01 X80.2830 Y6.3998
G01 X80.2834 Y6.3881
G01 X80.2843 Y6.3778
G01 X80.2864 Y6.3632
G01 X80.2895 Y6.3493
G01 X80.2954 Y6.3306
G01 X80.2992 Y6.3210
G01 X80.3041 Y6.3103
G01 X80.3756 Y6.1675
G01 X80.3793 Y6.1605
G01 X80.3868 Y6.1479
G01 X80.3983 Y6.1320
G01 X80.4076 Y6.1212
G01 X80.4130 Y6.1155
G01 X80.4845 Y6.0440
G01 X80.4972 Y6.0325
G01 X80.5128 Y6.0206
G01 X80.5215 Y6.0149
G01 X80.5338 Y6.0080
G01 X80.6815 Y5.9341
G01 X80.6950 Y5.9282
G01 X80.7136 Y5.9218
G01 X80.7322 Y5.9174
G01 X80.7516 Y5.9148
G01 X80.7688 Y5.9140
G01 X81.0570 Y5.9141
G01 X81.0766 Y5.9153
G01 X81.0911 Y5.9174
G01 X81.1097 Y5.9218
G01 X81.1260 Y5.9273
G01 X81.1417 Y5.9220
G01 X81.1559 Y5.9184
G01 X81.1753 Y5.9153
G01 X81.1949 Y5.9141
G01 X81.2145 Y5.9148
G01 X81.2340 Y5.9174
G01 X81.2531 Y5.9220
G01 X81.2762 Y5.9302
G01 X81.2895 Y5.9365
G01 X81.3065 Y5.9464
G01 X81.3262 Y5.9610
G01 X81.3405 Y5.9744
G01 X81.3535 Y5.9891
G01 X81.3623 Y6.0009
G01 X81.3726 Y6.0176
G01 X81.3812 Y6.0353
G01 X81.3881 Y6.0537
G01 X81.3931 Y6.0727
G01 X81.3962 Y6.0920
G01 X81.3974 Y6.1141
G01 X81.3974 Y7.6165
G01 X81.3962 Y7.6361
G01 X81.3931 Y7.6555
G01 X81.3881 Y7.6745
G01 X81.3831 Y7.6884
G01 X81.3726 Y7.7105
G01 X81.3623 Y7.7273
G01 X81.3504 Y7.7429
G01 X81.3371 Y7.7573
G01 X81.3224 Y7.7703
G01 X81.3065 Y7.7818
G01 X81.2895 Y7.7916
G01 X81.2716 Y7.7998
G01 X81.2531 Y7.8062
